;.gcode modify by https://rapax.dev

; generated by PrusaSlicer 2.7.2+linux-x64-GTK3 on 2024-06-14 at 04:30:53 UTC

; 

; external perimeters extrusion width = 0.42mm
; perimeters extrusion width = 0.44mm
; infill extrusion width = 0.44mm
; solid infill extrusion width = 0.44mm
; top infill extrusion width = 0.40mm
; support material extrusion width = 0.36mm
; first layer extrusion width = 0.42mm

; external perimeters extrusion width = 0.42mm
; perimeters extrusion width = 0.44mm
; infill extrusion width = 0.44mm
; solid infill extrusion width = 0.44mm
; top infill extrusion width = 0.40mm
; support material extrusion width = 0.36mm
; first layer extrusion width = 0.42mm

; external perimeters extrusion width = 0.42mm
; perimeters extrusion width = 0.44mm
; infill extrusion width = 0.44mm
; solid infill extrusion width = 0.44mm
; top infill extrusion width = 0.40mm
; support material extrusion width = 0.36mm
; first layer extrusion width = 0.42mm

; external perimeters extrusion width = 0.42mm
; perimeters extrusion width = 0.44mm
; infill extrusion width = 0.44mm
; solid infill extrusion width = 0.44mm
; top infill extrusion width = 0.40mm
; support material extrusion width = 0.36mm
; first layer extrusion width = 0.42mm

; external perimeters extrusion width = 0.42mm
; perimeters extrusion width = 0.44mm
; infill extrusion width = 0.44mm
; solid infill extrusion width = 0.44mm
; top infill extrusion width = 0.40mm
; support material extrusion width = 0.36mm
; first layer extrusion width = 0.42mm

; external perimeters extrusion width = 0.42mm
; perimeters extrusion width = 0.44mm
; infill extrusion width = 0.44mm
; solid infill extrusion width = 0.44mm
; top infill extrusion width = 0.40mm
; support material extrusion width = 0.36mm
; first layer extrusion width = 0.42mm

M201 X500 Y500 Z100 E5000 ; sets maximum accelerations, mm/sec^2
M203 X500 Y500 Z10 E60 ; sets maximum feedrates, mm / sec
M204 S500 T1000 ; sets acceleration (S) and retract acceleration (R), mm/sec^2
M205 X8.00 Y8.00 Z0.40 E5.00 ; sets the jerk limits, mm/sec
M205 S0 T0 ; sets the minimum extruding and travel feed rate, mm/sec

; printing object screw_support.stl id:6 copy 0
; stop printing object screw_support.stl id:6 copy 0
; printing object home_arm.stl id:3 copy 0
; stop printing object home_arm.stl id:3 copy 0
; printing object cover.stl id:4 copy 0
; stop printing object cover.stl id:4 copy 0
; printing object screw_support.stl id:5 copy 0
; stop printing object screw_support.stl id:5 copy 0
; printing object screw_support.stl id:8 copy 0
; stop printing object screw_support.stl id:8 copy 0
; printing object screw_support.stl id:7 copy 0
; stop printing object screw_support.stl id:7 copy 0

;TYPE:Custom
G90 ; use absolute coordinates
M83 ; extruder relative mode
M104 S150 ; set temporary nozzle temp to prevent oozing during homing
M140 S60 ; set final bed temp
G4 S30 ; allow partial nozzle warmup
G28 ; home all axis
G1 Z50 F240
G1 X2.0 Y10 F3000
M104 S200 ; set final nozzle temp
M190 S60 ; wait for bed temp to stabilize
M109 S200 ; wait for nozzle temp to stabilize
G1 Z0.28 F240
G92 E0
G1 X2.0 Y140 E10 F1500 ; prime the nozzle
G1 X2.3 Y140 F5000
G92 E0
G1 X2.3 Y10 E10 F1200 ; prime the nozzle
G92 E0
G21 ; set units to millimeters
G90 ; use absolute coordinates
M83 ; use relative distances for extrusion
; Filament gcode
M107
;LAYER_CHANGE
M300 P900 S900
;Z:0.2
;HEIGHT:0.2
G1 E-5 F3600
G1 Z.2 F9000
G1 X14.605 Y11.341
G1 Z.2
G1 E5 F2400
M204 S500
;TYPE:Skirt/Brim
;WIDTH:0.42
G1 F1200
G1 X18.073 Y6.875 E.19502
G1 X20.14 Y4.767 E.10182
G1 X21.604 Y3.861 E.05938
G1 X22.795 Y3.667 E.04162
G1 X36.88 Y3.667 E.48579
G1 X37.968 Y3.829 E.03794
G1 X82.11 Y17.206 E1.59082
G1 X83.542 Y17.85 E.05415
G1 X84.958 Y18.805 E.05891
G1 X86.09 Y19.894 E.05418
G1 X87.101 Y21.271 E.05892
G1 X87.702 Y22.439 E.0453
G1 X88.104 Y23.564 E.0412
G1 X88.371 Y24.776 E.0428
G1 X88.478 Y26.069 E.04475
G1 X88.48 Y86.23 E2.07494
G1 X88.42 Y87.279 E.03624
G1 X88.104 Y88.864 E.05574
G1 X87.546 Y90.332 E.05417
G1 X86.675 Y91.801 E.0589
G1 X85.655 Y92.996 E.05419
G1 X39.436 Y135.971 E2.17669
G1 X37.94 Y136.823 E.05938
G1 X36.88 Y136.976 E.03694
G1 X22.795 Y136.976 E.48579
G1 X21.119 Y136.581 E.05939
G1 X20.14 Y135.876 E.04161
G1 X18.383 Y134.119 E.0857
G1 X17.388 Y132.347 E.07009
G1 X6.382 Y86.689 E1.61984
G1 X6.283 Y85.338 E.04672
G1 X6.283 Y25.306 E2.07049
G1 X6.343 Y24.257 E.03624
G1 X6.578 Y22.965 E.04529
G1 X6.962 Y21.785 E.0428
G1 X7.429 Y20.785 E.03807
G1 X8.087 Y19.734 E.04277
G1 X14.568 Y11.389 E.36442
G1 X14.568 Y11.389 F9000
G1 X14.866 Y11.62
G1 F1200
G1 X18.371 Y7.107 E.19708
G1 X20.407 Y5.034 E.10021
G1 X21.805 Y4.193 E.05627
G1 X22.795 Y4.045 E.03452
G1 X36.88 Y4.045 E.48579
G1 X37.859 Y4.189 E.03413
G1 X81.982 Y17.561 E1.59014
G1 X83.357 Y18.178 E.05198
G1 X84.719 Y19.097 E.05667
G1 X85.805 Y20.14 E.05193
G1 X86.778 Y21.464 E.05667
G1 X87.357 Y22.592 E.04373
G1 X87.741 Y23.665 E.03931
G1 X87.998 Y24.831 E.04118
G1 X88.101 Y26.078 E.04316
G1 X88.102 Y86.23 E2.07463
G1 X88.045 Y87.233 E.03465
G1 X87.741 Y88.763 E.0538
G1 X87.206 Y90.171 E.05195
G1 X86.367 Y91.584 E.05668
G1 X85.389 Y92.729 E.05194
G1 X39.179 Y135.695 E2.17626
G1 X37.751 Y136.484 E.05627
G1 X36.88 Y136.599 E.0303
G1 X22.795 Y136.599 E.48579
G1 X21.211 Y136.205 E.0563
G1 X20.407 Y135.61 E.0345
G1 X18.649 Y133.852 E.08575
G1 X17.755 Y132.259 E.063
G1 X6.755 Y86.634 E1.61868
G1 X6.66 Y85.338 E.04482
G1 X6.66 Y25.306 E2.07049
G1 X6.717 Y24.303 E.03465
G1 X6.944 Y23.057 E.04368
G1 X7.314 Y21.921 E.04121
G1 X7.761 Y20.963 E.03646
G1 X8.396 Y19.952 E.04118
G1 X14.829 Y11.667 E.36177
G1 E-3.5 F3600
;WIPE_START
G1 F7200
G1 X14.866 Y11.62 E-.02841
G1 X16.766 Y9.173 E-1.47159
;WIPE_END
G1 X21.586 Y11.667 F9000
G1 E5 F2400
G1 F1200
G1 X21.586 Y10.062 E.05536
G1 X21.774 Y9.398 E.0238
G1 X21.959 Y9.064 E.01317
G1 X22.794 Y8.267 E.03981
G1 X23.674 Y7.971 E.03202
G1 X36.005 Y7.974 E.42529
G1 X36.449 Y8.072 E.01568
G1 X36.897 Y8.279 E.01702
G1 X37.587 Y8.904 E.03211
G1 X37.899 Y9.392 E.01998
G1 X38.071 Y9.951 E.02017
G1 X38.088 Y20.071 E.34904
G1 X43.864 Y20.071 E.19921
G1 X44.893 Y20.178 E.03568
G1 X45.657 Y20.396 E.0274
G1 X46.356 Y20.714 E.02649
G1 X46.978 Y21.114 E.02551
G1 X47.846 Y21.945 E.04144
G1 X48.516 Y21.549 E.02684
G1 X49.721 Y21.104 E.0443
G1 X50.488 Y20.983 E.02678
G1 X52.408 Y21.019 E.06623
G1 X53.275 Y21.415 E.03287
G1 X54.59 Y22.667 E.06262
G1 X55.424 Y23.119 E.03272
G1 X57.735 Y24.633 E.09529
G1 X59.191 Y25.12 E.05295
G1 X60.822 Y25.407 E.05712
G1 X61.925 Y25.462 E.03809
G1 X63.577 Y25.339 E.05713
G1 X64.66 Y25.12 E.03811
G1 X66.231 Y24.594 E.05714
G1 X67.227 Y24.116 E.0381
G1 X68.62 Y23.219 E.05714
G1 X69.463 Y22.514 E.0379
G1 X70.552 Y21.433 E.05292
G1 X70.978 Y21.191 E.0169
G1 X71.771 Y20.963 E.02846
G1 X78.951 Y20.963 E.24764
G1 X79.939 Y21.062 E.03425
G1 X81.078 Y21.424 E.04122
G1 X81.866 Y21.863 E.03111
G1 X82.722 Y22.587 E.03867
G1 X83.412 Y23.486 E.03909
G1 X83.972 Y24.765 E.04816
G1 X84.176 Y26.189 E.04961
G1 X84.129 Y86.916 E2.09446
G1 X83.963 Y87.696 E.0275
G1 X83.676 Y88.451 E.02786
G1 X83.277 Y89.152 E.02782
G1 X82.763 Y89.797 E.02845
G1 X81.686 Y90.68 E.04803
G1 X80.998 Y91.037 E.02673
G1 X79.999 Y91.354 E.03615
G1 X79.394 Y91.444 E.0211
G1 X50.632 Y91.456 E.99199
G1 X49.343 Y91.221 E.04519
G1 X48.609 Y90.926 E.02728
G1 X47.992 Y90.569 E.02459
G1 X47.404 Y90.109 E.02575
G1 X46.895 Y89.576 E.02542
G1 X45.847 Y90.172 E.04158
G1 X45.145 Y90.407 E.02553
G1 X44.437 Y90.537 E.02483
G1 X38.088 Y90.573 E.21898
G1 X38.088 Y130.542 E1.37852
G1 X38.005 Y130.979 E.01534
G1 X37.663 Y131.648 E.02591
G1 X37.141 Y132.184 E.0258
G1 X36.666 Y132.483 E.01936
G1 X35.997 Y132.673 E.02399
G1 X23.677 Y132.673 E.42491
G1 X23.009 Y132.483 E.02395
G1 X22.535 Y132.185 E.01931
G1 X21.882 Y131.465 E.03352
G1 X21.586 Y130.585 E.03202
G1 X21.586 Y90.573 E1.38
G1 X15.76 Y90.571 E.20094
G1 X14.556 Y90.414 E.04188
G1 X13.801 Y90.161 E.02746
G1 X13.137 Y89.824 E.02568
G1 X12.505 Y89.379 E.02666
G1 X11.946 Y88.846 E.02664
G1 X11.472 Y88.239 E.02656
G1 X10.897 Y87.1 E.04401
G1 X10.619 Y85.904 E.04235
G1 X10.606 Y24.862 E2.10532
G1 X10.734 Y24.086 E.02713
G1 X10.984 Y23.317 E.02789
G1 X11.591 Y22.233 E.04285
G1 X12.506 Y21.263 E.04599
G1 X13.137 Y20.819 E.02661
G1 X13.801 Y20.482 E.02568
G1 X14.556 Y20.23 E.02745
G1 X15.76 Y20.072 E.04188
G1 X21.586 Y20.071 E.20094
G1 X21.586 Y11.727 E.28778
G1 X21.586 Y11.727 F9000
G1 X21.963 Y11.727
G1 F1200
G1 X21.963 Y10.09 E.05646
G1 X22.274 Y9.273 E.03015
G1 X22.783 Y8.743 E.02534
G1 X22.993 Y8.588 E.009
G1 X23.705 Y8.348 E.02591
G1 X35.983 Y8.351 E.42346
G1 X36.708 Y8.607 E.02652
G1 X37.313 Y9.165 E.02839
G1 X37.546 Y9.527 E.01485
G1 X37.703 Y10.035 E.01834
G1 X37.711 Y20.448 E.35914
G1 X43.859 Y20.448 E.21204
G1 X44.824 Y20.549 E.03346
G1 X45.515 Y20.746 E.02478
G1 X46.165 Y21.04 E.0246
G1 X46.742 Y21.408 E.0236
G1 X47.283 Y21.876 E.02467
G1 X47.813 Y22.481 E.02774
G1 X48.698 Y21.88 E.0369
G1 X49.794 Y21.474 E.04031
G1 X50.5 Y21.36 E.02467
G1 X52.308 Y21.385 E.06236
G1 X53.063 Y21.728 E.0286
G1 X54.386 Y22.986 E.06297
G1 X55.22 Y23.436 E.03268
G1 X57.57 Y24.973 E.09685
G1 X58.548 Y25.332 E.03593
G1 X59.655 Y25.613 E.03939
G1 X60.784 Y25.783 E.03938
G1 X61.925 Y25.839 E.0394
G1 X63.066 Y25.783 E.0394
G1 X64.753 Y25.486 E.05908
G1 X65.845 Y25.15 E.03941
G1 X66.898 Y24.707 E.0394
G1 X67.902 Y24.162 E.0394
G1 X68.847 Y23.52 E.0394
G1 X69.722 Y22.788 E.03935
G1 X70.764 Y21.746 E.05082
G1 X71.108 Y21.545 E.01374
G1 X71.799 Y21.34 E.02486
G1 X79.398 Y21.363 E.26209
G1 X80.409 Y21.572 E.03561
G1 X80.931 Y21.772 E.01928
G1 X81.649 Y22.172 E.02835
G1 X82.442 Y22.84 E.03576
G1 X83.094 Y23.688 E.03689
G1 X83.399 Y24.282 E.02303
G1 X83.608 Y24.862 E.02126
G1 X83.778 Y25.758 E.03145
G1 X83.799 Y86.247 E2.08625
G1 X83.597 Y87.602 E.04725
G1 X83.329 Y88.302 E.02585
G1 X82.957 Y88.952 E.02583
G1 X82.495 Y89.532 E.02557
G1 X81.479 Y90.365 E.04531
G1 X80.377 Y90.867 E.04177
G1 X78.955 Y91.088 E.04963
G1 X50.642 Y91.079 E.97651
G1 X49.445 Y90.857 E.04199
G1 X48.786 Y90.593 E.02448
G1 X47.648 Y89.82 E.04745
G1 X46.975 Y89.053 E.03519
G1 X46.379 Y89.48 E.02529
G1 X45.713 Y89.82 E.02579
G1 X44.402 Y90.162 E.04673
G1 X37.711 Y90.196 E.23077
G1 X37.711 Y130.526 E1.39097
G1 X37.655 Y130.837 E.0109
G1 X37.372 Y131.407 E.02195
G1 X36.887 Y131.905 E.02398
G1 X36.533 Y132.13 E.01447
G1 X35.969 Y132.296 E.02028
G1 X23.705 Y132.296 E.42298
G1 X23.142 Y132.13 E.02024
G1 X22.787 Y131.904 E.01451
G1 X22.203 Y131.265 E.02986
G1 X21.963 Y130.554 E.02588
G1 X21.963 Y90.195 E1.39197
G1 X15.779 Y90.194 E.21328
G1 X14.638 Y90.045 E.03969
G1 X13.959 Y89.819 E.02468
G1 X13.32 Y89.495 E.02471
G1 X12.735 Y89.08 E.02474
G1 X12.217 Y88.584 E.02474
G1 X11.778 Y88.019 E.02468
G1 X11.249 Y86.964 E.0407
G1 X10.993 Y85.849 E.03946
G1 X10.982 Y24.89 E2.10246
G1 X11.104 Y24.163 E.02542
G1 X11.338 Y23.449 E.02591
G1 X11.9 Y22.449 E.03956
G1 X12.736 Y21.562 E.04204
G1 X13.32 Y21.149 E.02467
G1 X13.959 Y20.824 E.02473
G1 X14.638 Y20.598 E.02468
G1 X15.779 Y20.449 E.03969
G1 X21.963 Y20.448 E.21328
G1 X21.963 Y11.787 E.29872
G1 X21.963 Y11.787 F9000
G1 X22.34 Y11.787
G1 F1200
G1 X22.34 Y10.119 E.05753
G1 X22.586 Y9.485 E.02345
G1 X23.191 Y8.91 E.02879
G1 X23.736 Y8.725 E.01985
G1 X35.961 Y8.728 E.42164
G1 X36.519 Y8.935 E.02053
G1 X37.038 Y9.423 E.02457
G1 X37.334 Y10.119 E.02609
G1 X37.334 Y20.825 E.36925
G1 X43.854 Y20.825 E.22487
G1 X44.753 Y20.92 E.03118
G1 X45.397 Y21.104 E.0231
G1 X46.506 Y21.703 E.04347
G1 X47.027 Y22.152 E.02372
G1 X47.71 Y23.049 E.03888
G1 X48.86 Y22.22 E.04889
G1 X49.868 Y21.844 E.03711
G1 X50.514 Y21.737 E.02258
G1 X52.209 Y21.75 E.05846
G1 X52.85 Y22.04 E.02427
G1 X54.182 Y23.306 E.06338
G1 X55.024 Y23.758 E.03296
G1 X57.404 Y25.312 E.09803
G1 X58.437 Y25.692 E.03796
G1 X59.58 Y25.983 E.04068
G1 X61.336 Y26.202 E.06103
G1 X63.104 Y26.158 E.061
G1 X64.271 Y25.983 E.0407
G1 X65.414 Y25.692 E.04068
G1 X66.523 Y25.289 E.0407
G1 X67.587 Y24.779 E.04069
G1 X68.595 Y24.165 E.04071
G1 X69.981 Y23.063 E.06107
G1 X70.98 Y22.056 E.04892
G1 X71.829 Y21.717 E.03153
G1 X78.941 Y21.717 E.24529
G1 X79.773 Y21.798 E.02883
G1 X80.783 Y22.119 E.03655
G1 X81.433 Y22.481 E.02566
G1 X82.163 Y23.094 E.03288
G1 X82.775 Y23.89 E.03463
G1 X83.244 Y24.96 E.04029
G1 X83.422 Y26.198 E.04314
G1 X83.379 Y86.834 E2.09132
G1 X83.232 Y87.507 E.02376
G1 X82.982 Y88.153 E.02389
G1 X82.653 Y88.729 E.02288
G1 X82.226 Y89.267 E.02369
G1 X81.271 Y90.05 E.04259
G1 X80.675 Y90.356 E.02311
G1 X79.338 Y90.692 E.04755
G1 X50.673 Y90.703 E.98865
G1 X49.546 Y90.494 E.03953
G1 X48.435 Y89.958 E.04254
G1 X47.891 Y89.532 E.02383
G1 X47.435 Y89.049 E.02291
G1 X47.031 Y88.471 E.02432
G1 X46.193 Y89.151 E.03722
G1 X45.578 Y89.467 E.02385
G1 X44.367 Y89.786 E.04319
G1 X37.334 Y89.818 E.24257
G1 X37.29 Y130.739 E1.41135
G1 X37.051 Y131.208 E.01815
G1 X36.635 Y131.624 E.02029
G1 X35.94 Y131.918 E.02603
G1 X23.735 Y131.918 E.42095
G1 X23.279 Y131.778 E.01645
G1 X22.634 Y131.218 E.02946
G1 X22.34 Y130.523 E.02603
G1 X22.34 Y89.818 E1.4039
G1 X15.797 Y89.818 E.22567
G1 X14.72 Y89.677 E.03746
G1 X14.093 Y89.466 E.02282
G1 X12.965 Y88.781 E.04552
G1 X12.085 Y87.8 E.04545
G1 X11.601 Y86.829 E.03742
G1 X11.366 Y85.795 E.03657
G1 X11.358 Y24.919 E2.0996
G1 X11.473 Y24.24 E.02375
G1 X11.691 Y23.581 E.02394
G1 X12.209 Y22.665 E.03629
G1 X12.966 Y21.861 E.03809
G1 X14.093 Y21.177 E.04547
G1 X14.72 Y20.966 E.02282
G1 X15.797 Y20.825 E.03746
G1 X22.34 Y20.825 E.22567
G1 X22.34 Y11.847 E.30965
G1 X22.34 Y11.847 F9000
G1 X22.717 Y11.847
G1 F1200
G1 X22.717 Y10.151 E.05849
G1 X22.893 Y9.704 E.01657
G1 X23.296 Y9.297 E.01975
G1 X23.768 Y9.102 E.01761
G1 X35.939 Y9.105 E.41977
G1 X36.329 Y9.262 E.0145
G1 X36.76 Y9.679 E.02068
G1 X36.957 Y10.151 E.01764
G1 X36.957 Y21.202 E.38115
G1 X43.849 Y21.202 E.2377
G1 X44.683 Y21.29 E.02892
G1 X45.784 Y21.691 E.04041
G1 X46.293 Y22.014 E.02079
G1 X47.13 Y22.847 E.04073
G1 X47.624 Y23.712 E.03436
G1 X48.627 Y22.796 E.04685
G1 X49.524 Y22.34 E.03471
G1 X50.53 Y22.114 E.03556
G1 X52.111 Y22.116 E.05453
G1 X52.633 Y22.349 E.01972
G1 X53.977 Y23.625 E.06392
G1 X54.829 Y24.081 E.03333
G1 X57.238 Y25.652 E.09919
G1 X58.326 Y26.053 E.03999
G1 X59.506 Y26.352 E.04198
G1 X60.709 Y26.533 E.04196
G1 X61.925 Y26.594 E.04199
G1 X63.141 Y26.533 E.04199
G1 X64.939 Y26.217 E.06296
G1 X66.102 Y25.859 E.04197
G1 X67.225 Y25.387 E.04201
G1 X68.807 Y24.477 E.06295
G1 X70.235 Y23.341 E.06293
G1 X71.202 Y22.361 E.04748
G1 X71.86 Y22.094 E.02449
G1 X79.31 Y22.112 E.25695
G1 X80.16 Y22.284 E.02991
G1 X80.636 Y22.466 E.01758
G1 X81.218 Y22.791 E.02299
G1 X81.884 Y23.348 E.02994
G1 X82.456 Y24.092 E.03237
G1 X82.716 Y24.603 E.01977
G1 X83.027 Y25.829 E.04362
G1 X83.045 Y86.233 E2.08332
G1 X82.875 Y87.385 E.04016
G1 X82.647 Y87.979 E.02194
G1 X81.957 Y89.003 E.04259
G1 X81.065 Y89.734 E.03978
G1 X80.137 Y90.151 E.03509
G1 X78.946 Y90.334 E.04156
G1 X50.703 Y90.327 E.97409
G1 X49.672 Y90.138 E.03615
G1 X48.634 Y89.638 E.03974
G1 X47.72 Y88.801 E.04274
G1 X47.135 Y87.831 E.03907
G1 X46.497 Y88.467 E.03107
G1 X45.984 Y88.837 E.02182
G1 X45.42 Y89.125 E.02184
G1 X44.31 Y89.413 E.03955
G1 X36.957 Y89.441 E.2536
G1 X36.957 Y130.492 E1.41584
G1 X36.761 Y130.964 E.01763
G1 X36.381 Y131.344 E.01853
G1 X35.908 Y131.541 E.01767
G1 X23.767 Y131.541 E.41874
G1 X23.293 Y131.344 E.0177
G1 X22.849 Y130.874 E.0223
G1 X22.717 Y130.491 E.01397
G1 X22.717 Y89.441 E1.4158
G1 X15.814 Y89.441 E.23808
G1 X14.802 Y89.309 E.0352
G1 X13.689 Y88.837 E.0417
G1 X12.761 Y88.062 E.0417
G1 X12.109 Y87.073 E.04086
G1 X11.843 Y86.332 E.02715
G1 X11.739 Y85.741 E.0207
G1 X11.734 Y24.949 E2.0967
G1 X12.044 Y23.715 E.04388
G1 X12.518 Y22.882 E.03306
G1 X13.197 Y22.159 E.03421
G1 X14.228 Y21.53 E.04165
G1 X14.802 Y21.334 E.02092
G1 X15.814 Y21.202 E.0352
G1 X22.717 Y21.202 E.23808
G1 X22.717 Y11.907 E.32058
G1 X22.717 Y11.907 F9000
G1 X23.095 Y11.907
G1 F1200
G1 X23.095 Y10.186 E.05936
G1 X23.194 Y9.932 E.0094
G1 X23.574 Y9.56 E.01834
G1 X23.802 Y9.479 E.00835
G1 X35.919 Y9.485 E.41791
G1 X36.137 Y9.588 E.00832
G1 X36.48 Y9.932 E.01675
G1 X36.58 Y10.186 E.00941
