;.gcode modify by https://rapax.dev

; generated by PrusaSlicer 2.7.2+linux-x64-GTK3 on 2024-06-14 at 04:31:53 UTC

; 

; external perimeters extrusion width = 0.42mm
; perimeters extrusion width = 0.44mm
; infill extrusion width = 0.44mm
; solid infill extrusion width = 0.44mm
; top infill extrusion width = 0.40mm
; support material extrusion width = 0.36mm
; first layer extrusion width = 0.42mm

; external perimeters extrusion width = 0.42mm
; perimeters extrusion width = 0.44mm
; infill extrusion width = 0.44mm
; solid infill extrusion width = 0.44mm
; top infill extrusion width = 0.40mm
; support material extrusion width = 0.36mm
; first layer extrusion width = 0.42mm

; external perimeters extrusion width = 0.42mm
; perimeters extrusion width = 0.44mm
; infill extrusion width = 0.44mm
; solid infill extrusion width = 0.44mm
; top infill extrusion width = 0.40mm
; support material extrusion width = 0.36mm
; first layer extrusion width = 0.42mm

M201 X500 Y500 Z100 E5000 ; sets maximum accelerations, mm/sec^2
M203 X500 Y500 Z10 E60 ; sets maximum feedrates, mm / sec
M204 S500 T1000 ; sets acceleration (S) and retract acceleration (R), mm/sec^2
M205 X8.00 Y8.00 Z0.40 E5.00 ; sets the jerk limits, mm/sec
M205 S0 T0 ; sets the minimum extruding and travel feed rate, mm/sec

; printing object Bed_mount.stl id:0 copy 0
; stop printing object Bed_mount.stl id:0 copy 0
; printing object raspberri_pi_camera_case_back_v0.4_for_v2.1.STL id:1 copy 0
; stop printing object raspberri_pi_camera_case_back_v0.4_for_v2.1.STL id:1 copy 0
; printing object raspberri_pi_camera_case_front_v0.4.2_with_tabs.STL id:2 copy 0
; stop printing object raspberri_pi_camera_case_front_v0.4.2_with_tabs.STL id:2 copy 0

;TYPE:Custom
G90 ; use absolute coordinates
M83 ; extruder relative mode
M104 S150 ; set temporary nozzle temp to prevent oozing during homing
M140 S60 ; set final bed temp
G4 S30 ; allow partial nozzle warmup
G28 ; home all axis
G1 Z50 F240
G1 X2.0 Y10 F3000
M104 S200 ; set final nozzle temp
M190 S60 ; wait for bed temp to stabilize
M109 S200 ; wait for nozzle temp to stabilize
G1 Z0.28 F240
G92 E0
G1 X2.0 Y140 E10 F1500 ; prime the nozzle
G1 X2.3 Y140 F5000
G92 E0
G1 X2.3 Y10 E10 F1200 ; prime the nozzle
G92 E0
G21 ; set units to millimeters
G90 ; use absolute coordinates
M83 ; use relative distances for extrusion
; Filament gcode
M107
;LAYER_CHANGE
M300 P900 S900
;Z:0.2
;HEIGHT:0.2
G1 E-5 F3600
G1 Z.2 F9000
G1 X15.965 Y17.985
G1 Z.2
G1 E5 F2400
M204 S500
;TYPE:Skirt/Brim
;WIDTH:0.42
G1 F1200
G1 X26.817 Y9.025 E.48537
G1 X29.203 Y8.169 E.08743
G1 X37.839 Y8.169 E.29785
G1 X38.605 Y8.248 E.02656
G1 X83.68 Y17.654 E1.58811
G1 X84.62 Y17.931 E.0338
G1 X85.514 Y18.317 E.03359
G1 X86.358 Y18.81 E.03371
G1 X87.12 Y19.386 E.03294
G1 X88.221 Y20.531 E.05479
G1 X89.09 Y21.893 E.05572
G1 X89.664 Y23.377 E.05488
G1 X89.936 Y24.937 E.05462
G1 X89.958 Y49.469 E.8461
G1 X89.857 Y50.62 E.03985
G1 X89.592 Y51.751 E.04006
G1 X89.195 Y52.773 E.03781
G1 X88.646 Y53.76 E.03895
G1 X87.982 Y54.64 E.03802
G1 X87.185 Y55.44 E.03895
G1 X66.116 Y72.573 E.9366
G1 X65.08 Y73.17 E.04124
G1 X26.884 Y87.658 E1.40895
G1 X25.553 Y87.902 E.04667
G1 X15.549 Y87.902 E.34504
G1 X13.87 Y87.505 E.05951
G1 X11.235 Y86.188 E.1016
G1 X10.26 Y85.485 E.04146
G1 X8.832 Y84.058 E.06963
G1 X8.129 Y83.082 E.04149
G1 X6.812 Y80.448 E.10157
G1 X6.416 Y78.769 E.0595
G1 X6.416 Y62.179 E.57218
G1 X6.477 Y61.5 E.02351
G1 X13.72 Y22.12 E1.38099
G1 X13.936 Y21.252 E.03085
G1 X14.288 Y20.336 E.03384
G1 X14.742 Y19.491 E.03308
G1 X15.307 Y18.697 E.03361
G1 X15.924 Y18.029 E.03136
G1 X15.924 Y18.029 F9000
G1 X16.202 Y18.287
G1 F1200
G1 X16.255 Y18.229 E.00271
G1 X27.057 Y9.316 E.48301
G1 X29.203 Y8.546 E.07864
G1 X37.839 Y8.546 E.29785
G1 X38.528 Y8.617 E.02389
G1 X83.596 Y18.022 E1.58787
G1 X84.467 Y18.277 E.0313
G1 X85.322 Y18.643 E.03208
G1 X86.128 Y19.109 E.03211
G1 X86.854 Y19.654 E.03131
G1 X87.906 Y20.741 E.05217
G1 X88.74 Y22.037 E.05315
G1 X89.293 Y23.449 E.0523
G1 X89.56 Y24.967 E.05316
G1 X89.581 Y49.429 E.84369
G1 X89.489 Y50.535 E.03828
G1 X89.232 Y51.637 E.03903
G1 X88.853 Y52.614 E.03614
G1 X88.33 Y53.554 E.0371
G1 X87.698 Y54.393 E.03623
G1 X86.938 Y55.156 E.03714
G1 X65.878 Y72.28 E.93616
G1 X64.946 Y72.817 E.0371
G1 X26.751 Y87.305 E1.40892
G1 X25.553 Y87.525 E.04201
G1 X15.549 Y87.525 E.34504
G1 X14.038 Y87.168 E.05355
G1 X11.404 Y85.851 E.10157
G1 X10.526 Y85.218 E.03733
G1 X9.099 Y83.791 E.0696
G1 X8.466 Y82.913 E.03733
G1 X7.149 Y80.279 E.10157
G1 X6.793 Y78.769 E.05351
G1 X6.793 Y62.179 E.57218
G1 X6.848 Y61.568 E.02116
G1 X14.083 Y22.23 E1.37951
G1 X14.296 Y21.365 E.03072
G1 X14.631 Y20.492 E.03225
G1 X15.062 Y19.691 E.03137
G1 X15.6 Y18.934 E.03203
G1 X16.161 Y18.331 E.02841
G1 E-3.5 F3600
;WIPE_START
G1 F7200
G1 X16.202 Y18.287 E-.02857
G1 X16.255 Y18.229 E-.03732
G1 X18.584 Y16.307 E-1.43411
;WIPE_END
G1 X53.398 Y24.59 F9000
G1 E5 F2400
G1 F1200
G1 X53.676 Y23.845 E.02743
G1 X54.319 Y22.932 E.03851
G1 X54.882 Y22.445 E.02567
G1 X55.511 Y22.086 E.02498
G1 X56.227 Y21.847 E.02603
G1 X56.949 Y21.752 E.02512
G1 X81.977 Y21.753 E.86321
G1 X82.679 Y21.84 E.0244
G1 X83.354 Y22.057 E.02445
G1 X83.956 Y22.38 E.02356
G1 X84.513 Y22.83 E.0247
G1 X84.956 Y23.348 E.02351
G1 X85.314 Y23.97 E.02475
G1 X85.549 Y24.65 E.02481
G1 X85.648 Y25.329 E.02367
G1 X85.656 Y49.399 E.83017
G1 X85.577 Y50.105 E.0245
G1 X85.38 Y50.76 E.02359
G1 X85.061 Y51.378 E.02399
G1 X84.626 Y51.937 E.02443
G1 X84.071 Y52.422 E.02542
G1 X83.407 Y52.803 E.0264
G1 X82.716 Y53.033 E.02512
G1 X81.956 Y53.13 E.02642
G1 X57.009 Y53.131 E.86042
G1 X56.304 Y53.053 E.02446
G1 X55.648 Y52.855 E.02363
G1 X55.03 Y52.536 E.02399
G1 X54.47 Y52.101 E.02446
G1 X53.985 Y51.546 E.02542
G1 X53.605 Y50.882 E.02639
G1 X53.374 Y50.191 E.02513
G1 X53.277 Y49.431 E.02642
G1 X53.278 Y25.383 E.82941
G1 X53.389 Y24.649 E.0256
G1 X53.389 Y24.649 F9000
G1 X53.759 Y24.703
G1 F1200
G1 X54.021 Y24 E.02588
G1 X54.584 Y23.201 E.03371
G1 X55.087 Y22.762 E.02303
G1 X55.65 Y22.437 E.02242
G1 X56.296 Y22.218 E.02353
G1 X56.961 Y22.13 E.02314
G1 X81.965 Y22.13 E.86238
G1 X82.614 Y22.212 E.02256
G1 X83.22 Y22.409 E.02198
G1 X83.76 Y22.703 E.02121
G1 X84.261 Y23.111 E.02228
G1 X84.657 Y23.578 E.02112
G1 X84.977 Y24.141 E.02234
G1 X85.186 Y24.754 E.02234
G1 X85.272 Y25.368 E.02138
G1 X85.279 Y49.389 E.82848
G1 X85.211 Y50.013 E.02165
G1 X85.024 Y50.633 E.02234
G1 X84.735 Y51.187 E.02155
G1 X84.341 Y51.69 E.02204
G1 X83.839 Y52.124 E.02289
G1 X83.238 Y52.465 E.02383
G1 X82.616 Y52.669 E.02258
G1 X81.944 Y52.753 E.02336
G1 X57.018 Y52.754 E.85969
G1 X56.396 Y52.687 E.02158
G1 X55.775 Y52.499 E.02238
G1 X55.22 Y52.21 E.02158
G1 X54.718 Y51.816 E.02201
G1 X54.283 Y51.314 E.02291
G1 X53.942 Y50.713 E.02383
G1 X53.738 Y50.091 E.02258
G1 X53.654 Y49.419 E.02336
G1 X53.656 Y25.396 E.82855
G1 X53.75 Y24.763 E.02207
G1 X53.75 Y24.763 F9000
G1 X54.122 Y24.819
G1 F1200
G1 X54.128 Y24.78 E.00136
G1 X54.365 Y24.158 E.02296
G1 X54.877 Y23.44 E.03041
G1 X55.318 Y23.061 E.02006
G1 X55.821 Y22.774 E.01997
G1 X56.364 Y22.589 E.01979
G1 X56.974 Y22.507 E.02123
G1 X81.953 Y22.507 E.86152
G1 X82.516 Y22.577 E.01957
G1 X83.058 Y22.75 E.01962
G1 X83.537 Y23.008 E.01876
G1 X83.985 Y23.369 E.01984
G1 X84.357 Y23.808 E.01985
G1 X84.64 Y24.309 E.01985
G1 X84.823 Y24.856 E.01989
G1 X84.897 Y25.405 E.01911
G1 X84.901 Y49.379 E.82686
G1 X84.838 Y49.953 E.01992
G1 X84.669 Y50.505 E.01991
G1 X84.41 Y50.995 E.01912
G1 X84.058 Y51.441 E.0196
G1 X83.608 Y51.826 E.02043
G1 X83.101 Y52.113 E.02009
G1 X82.55 Y52.298 E.02005
G1 X81.932 Y52.376 E.02148
G1 X57.029 Y52.376 E.8589
G1 X56.455 Y52.314 E.01991
G1 X55.903 Y52.144 E.01992
G1 X55.412 Y51.885 E.01915
G1 X54.967 Y51.533 E.01957
G1 X54.581 Y51.083 E.02045
G1 X54.294 Y50.576 E.02009
G1 X54.109 Y50.025 E.02005
G1 X54.031 Y49.407 E.02148
G1 X54.033 Y25.411 E.82762
G1 X54.113 Y24.878 E.01859
G1 X54.113 Y24.878 F9000
G1 X54.486 Y24.936
G1 F1200
G1 X54.498 Y24.859 E.00269
G1 X54.707 Y24.317 E.02004
G1 X55.168 Y23.68 E.02712
G1 X55.989 Y23.111 E.03445
G1 X56.986 Y22.884 E.03527
G1 X81.941 Y22.884 E.86069
G1 X82.924 Y23.103 E.03473
G1 X83.733 Y23.649 E.03366
G1 X84.301 Y24.476 E.0346
G1 X84.522 Y25.441 E.03414
G1 X84.524 Y49.369 E.82527
G1 X84.327 Y50.345 E.03434
G1 X83.775 Y51.19 E.03481
G1 X82.933 Y51.775 E.03536
G1 X82.45 Y51.934 E.01754
G1 X81.921 Y51.999 E.01838
G1 X57.038 Y51.999 E.85821
G1 X56.062 Y51.802 E.03434
G1 X55.217 Y51.25 E.03481
G1 X54.632 Y50.408 E.03536
G1 X54.474 Y49.925 E.01753
G1 X54.408 Y49.396 E.01839
G1 X54.41 Y25.426 E.82672
G1 X54.476 Y24.995 E.01504
G1 X54.476 Y24.995 F9000
G1 X54.848 Y25.055
G1 F1200
G1 X54.867 Y24.94 E.00402
G1 X55.049 Y24.478 E.01713
G1 X55.43 Y23.952 E.0224
G1 X56.127 Y23.463 E.02937
G1 X56.998 Y23.261 E.03084
G1 X81.93 Y23.261 E.8599
G1 X82.76 Y23.443 E.02931
G1 X83.478 Y23.928 E.02988
G1 X83.961 Y24.64 E.02967
G1 X84.146 Y25.475 E.0295
G1 X84.147 Y49.359 E.82375
G1 X83.972 Y50.216 E.03017
G1 X83.495 Y50.937 E.02982
G1 X82.769 Y51.435 E.03036
G1 X81.91 Y51.622 E.03032
G1 X57.049 Y51.622 E.85745
G1 X56.192 Y51.447 E.03017
G1 X55.47 Y50.97 E.02985
G1 X54.972 Y50.244 E.03036
G1 X54.785 Y49.385 E.03032
G1 X54.787 Y25.441 E.82582
G1 X54.839 Y25.114 E.01142
G1 X54.839 Y25.114 F9000
G1 X55.229 Y25.222
G1 F1200
G1 X55.389 Y24.642 E.02075
G1 X55.692 Y24.224 E.01781
G1 X56.294 Y23.801 E.02538
G1 X57.009 Y23.638 E.02529
G1 X81.919 Y23.638 E.85914
G1 X82.627 Y23.796 E.02502
G1 X83.221 Y24.204 E.02485
G1 X83.62 Y24.802 E.02479
G1 X83.77 Y25.507 E.02486
G1 X83.77 Y49.35 E.82234
G1 X83.618 Y50.086 E.02592
G1 X83.216 Y50.683 E.02482
G1 X82.607 Y51.095 E.02536
G1 X81.9 Y51.245 E.02493
G1 X57.058 Y51.245 E.85679
G1 X56.321 Y51.093 E.02595
G1 X55.725 Y50.691 E.02479
G1 X55.313 Y50.082 E.02536
G1 X55.162 Y49.375 E.02493
G1 X55.164 Y25.457 E.82493
G1 X55.213 Y25.28 E.00633
G1 X55.213 Y25.28 F9000
G1 X55.567 Y25.38
G1 F1200
G1 X55.73 Y24.805 E.02061
G1 X55.956 Y24.494 E.01326
G1 X56.461 Y24.14 E.02127
G1 X57.02 Y24.015 E.01976
G1 X82.164 Y24.044 E.86721
G1 X82.464 Y24.137 E.01083
G1 X82.943 Y24.46 E.01993
G1 X83.267 Y24.936 E.01986
G1 X83.393 Y25.519 E.02057
G1 X83.393 Y49.339 E.82155
G1 X83.265 Y49.952 E.0216
G1 X82.94 Y50.425 E.01979
G1 X82.448 Y50.752 E.02038
G1 X81.89 Y50.868 E.01966
G1 X57.068 Y50.868 E.8561
G1 X56.455 Y50.74 E.0216
G1 X55.982 Y50.415 E.01979
G1 X55.655 Y49.923 E.02038
G1 X55.539 Y49.365 E.01966
G1 X55.541 Y25.471 E.8241
G1 X55.55 Y25.438 E.00118
G1 E-3.5 F3600
;WIPE_START
G1 F7200
G1 X55.567 Y25.38 E-.02871
G1 X55.73 Y24.805 E-.28389
G1 X55.956 Y24.494 E-.18261
G1 X56.461 Y24.14 E-.29294
G1 X57.02 Y24.015 E-.27208
G1 X57.946 Y24.016 E-.43977
;WIPE_END
G1 X49.598 Y54.435 F9000
G1 E5 F2400
G1 F1200
G1 X50.645 Y54.799 E.03823
G1 X51.122 Y55.197 E.02143
G1 X51.484 Y55.68 E.02082
G1 X51.79 Y56.596 E.03331
G1 X51.773 Y65.183 E.29616
G1 X51.53 Y65.91 E.02644
G1 X51.11 Y66.496 E.02487
G1 X50.561 Y66.92 E.02392
G1 X49.908 Y67.172 E.02414
G1 X48.538 Y67.347 E.04763
G1 X16.439 Y67.345 E1.10709
G1 X15.182 Y67.189 E.04369
G1 X14.375 Y66.866 E.02998
G1 X13.86 Y66.432 E.02323
G1 X13.529 Y65.966 E.01971
G1 X13.299 Y65.42 E.02043
G1 X13.256 Y56.498 E.30772
G1 X13.498 Y55.769 E.02649
G1 X13.919 Y55.183 E.02489
G1 X14.467 Y54.76 E.02388
G1 X15.121 Y54.507 E.02419
G1 X16.491 Y54.333 E.04763
G1 X48.594 Y54.333 E1.10722
G1 X49.539 Y54.429 E.03276
G1 X49.539 Y54.429 F9000
G1 X49.5 Y54.799
G1 F1200
G1 X50.434 Y55.114 E.034
G1 X50.835 Y55.442 E.01787
G1 X51.164 Y55.882 E.01895
G1 X51.413 Y56.626 E.02706
G1 X51.405 Y65.096 E.29213
G1 X51.206 Y65.715 E.02243
G1 X50.82 Y66.253 E.02284
G1 X50.358 Y66.601 E.01995
G1 X49.792 Y66.813 E.02085
G1 X48.533 Y66.97 E.04376
G1 X16.458 Y66.969 E1.10626
G1 X15.27 Y66.822 E.04129
G1 X14.591 Y66.556 E.02515
G1 X14.153 Y66.193 E.01962
G1 X13.849 Y65.766 E.01808
G1 X13.649 Y65.261 E.01873
G1 X13.624 Y56.584 E.29927
G1 X13.822 Y55.964 E.02245
G1 X14.208 Y55.427 E.02281
G1 X14.671 Y55.078 E.02
G1 X15.236 Y54.866 E.02081
G1 X16.496 Y54.71 E.04379
G1 X48.585 Y54.71 E1.10674
G1 X49.44 Y54.794 E.02963
G1 X49.44 Y54.794 F9000
G1 X49.405 Y55.165
G1 F1200
G1 X50.227 Y55.43 E.02979
G1 X50.548 Y55.688 E.0142
G1 X50.845 Y56.084 E.01707
G1 X51.036 Y56.657 E.02083
G1 X51.036 Y65.015 E.28827
G1 X50.881 Y65.522 E.01829
G1 X50.532 Y66.007 E.02061
G1 X50.159 Y66.28 E.01594
G1 X49.681 Y66.453 E.01753
G1 X48.528 Y66.593 E.04006
G1 X16.478 Y66.592 E1.1054
G1 X15.359 Y66.455 E.03888
G1 X14.803 Y66.243 E.02052
G1 X14.445 Y65.953 E.01589
G1 X14.17 Y65.567 E.01635
G1 X14.026 Y65.205 E.01344
G1 X13.993 Y56.665 E.29454
G1 X14.147 Y56.158 E.01828
G1 X14.496 Y55.672 E.02064
G1 X14.869 Y55.4 E.01592
G1 X15.348 Y55.227 E.01757
G1 X16.5 Y55.087 E.04002
G1 X48.576 Y55.087 E1.10629
G1 X49.345 Y55.159 E.02664
G1 X49.345 Y55.159 F9000
G1 X49.312 Y55.531
G1 F1200
G1 X49.315 Y55.531 E.0001
G1 X50.024 Y55.75 E.02559
G1 X50.262 Y55.936 E.01042
G1 X50.525 Y56.286 E.0151
G1 X50.659 Y56.687 E.01458
G1 X50.659 Y64.984 E.28616
G1 X50.533 Y65.374 E.01414
G1 X50.25 Y65.756 E.0164
G1 X49.967 Y65.955 E.01193
G1 X49.573 Y66.091 E.01438
G1 X48.524 Y66.215 E.03643
G1 X16.497 Y66.215 E1.1046
G1 X15.447 Y66.088 E.03648
G1 X15.011 Y65.927 E.01603
G1 X14.736 Y65.711 E.01206
G1 X14.39 Y65.103 E.02413
G1 X14.37 Y56.696 E.28996
G1 X14.496 Y56.305 E.01417
G1 X14.779 Y55.923 E.0164
G1 X15.062 Y55.725 E.01191
G1 X15.455 Y55.588 E.01435
G1 X16.505 Y55.464 E.03647
G1 X48.568 Y55.464 E1.10584
G1 X49.252 Y55.526 E.02369
G1 X49.252 Y55.526 F9000
G1 X49.22 Y55.898
G1 F1200
G1 X49.229 Y55.899 E.00031
G1 X49.829 Y56.074 E.02156
G1 X50.205 Y56.488 E.01929
G1 X50.282 Y56.717 E.00833
G1 X50.282 Y64.955 E.28413
G1 X49.966 Y65.506 E.02191
G1 X49.465 Y65.729 E.01891
G1 X48.519 Y65.838 E.03284
G1 X16.503 Y65.838 E1.10422
G1 X15.921 Y65.799 E.02012
G1 X15.211 Y65.607 E.02537
G1 X15.025 Y65.467 E.00803
G1 X14.756 Y65.008 E.01835
G1 X14.747 Y56.725 E.28568
G1 X15.063 Y56.174 E.02191
G1 X15.563 Y55.95 E.0189
G1 X16.509 Y55.841 E.03284
G1 X48.561 Y55.841 E1.10546
G1 X49.16 Y55.893 E.02074
G1 X49.16 Y55.893 F9000
G1 X49.147 Y56.267
G1 F1200
G1 X49.646 Y56.405 E.01786
G1 X49.904 Y56.748 E.0148
G1 X49.904 Y64.925 E.28202
G1 X49.666 Y65.261 E.0142
G1 X49.357 Y65.368 E.01128
G1 X48.515 Y65.461 E.02922
G1 X16.509 Y65.461 E1.10388
G1 X15.667 Y65.366 E.02922
G1 X15.315 Y65.225 E.01308
G1 X15.124 Y64.925 E.01227
G1 X15.124 Y56.754 E.28182
G1 X15.363 Y56.419 E.01419
G1 X15.671 Y56.312 E.01125
G1 X16.513 Y56.218 E.02922
G1 X49.087 Y56.267 E1.12347
G1 X49.087 Y56.267 F9000
G1 X49.057 Y56.638
G1 F1200
G1 X49.097 Y56.641 E.00138
G1 X49.452 Y56.741 E.01272
G1 X49.527 Y56.841 E.00431
G1 X49.527 Y64.836 E.27575
G1 X49.25 Y65.006 E.01121
G1 X48.512 Y65.084 E.0256
G1 X16.515 Y65.084 E1.10357
G1 X15.777 Y65.005 E.0256
G1 X15.501 Y64.835 E.01118
G1 X15.501 Y56.844 E.27561
G1 X15.778 Y56.674 E.01121
G1 X16.517 Y56.595 E.02563
G1 X48.545 Y56.596 E1.10464
G1 X48.997 Y56.633 E.01564
G1 E-3.5 F3600
;WIPE_START
G1 F7200
G1 X49.057 Y56.638 E-.0286
G1 X49.097 Y56.641 E-.01905
G1 X49.452 Y56.741 E-.17519
G1 X49.527 Y56.841 E-.05938
G1 X49.527 Y59.405 E-1.21778
;WIPE_END
G1 X47.118 Y50.546 F9000
G1 E5 F2400
G1 F1200
G1 X46.175 Y50.715 E.03304
G1 X21.175 Y50.714 E.86224
G1 X20.501 Y50.627 E.02344
G1 X19.876 Y50.417 E.02274
G1 X19.064 Y49.896 E.03327
G1 X18.454 Y49.204 E.03182
G1 X18.06 Y48.391 E.03116
G1 X17.891 Y47.449 E.03301
G1 X17.891 Y23.471 E.82699
G1 X17.971 Y22.811 E.02293
G1 X18.189 Y22.151 E.02397
G1 X18.655 Y21.402 E.03042
G1 X19.292 Y20.803 E.03016
G1 X20.07 Y20.384 E.03048
G1 X20.914 Y20.186 E.0299
G1 X27.995 Y20.166 E.24422
G1 X28.004 Y14.514 E.19494
G1 X28.113 Y14.066 E.0159
G1 X28.378 Y13.554 E.01988
G1 X28.934 Y12.968 E.02786
G1 X29.268 Y12.733 E.01409
G1 X30.03 Y12.481 E.02768
G1 X32.401 Y12.475 E.08178
G1 X32.85 Y12.571 E.01584
G1 X33.52 Y12.908 E.02587
G1 X34.253 Y12.55 E.02814
G1 X34.615 Y12.478 E.01273
G1 X37.006 Y12.481 E.08247
G1 X37.855 Y12.78 E.03104
G1 X38.546 Y13.406 E.03216
G1 X38.854 Y13.884 E.01961
G1 X39.028 Y14.442 E.02016
G1 X39.046 Y20.167 E.19745
G1 X46.503 Y20.197 E.25719
G1 X47.404 Y20.442 E.0322
G1 X48.206 Y20.93 E.03238
