; generated by PrusaSlicer 2.7.2+linux-x64-GTK3 on 2024-06-10 at 22:43:54 UTC

; 

; external perimeters extrusion width = 0.42mm
; perimeters extrusion width = 0.44mm
; infill extrusion width = 0.44mm
; solid infill extrusion width = 0.44mm
; top infill extrusion width = 0.40mm
; first layer extrusion width = 0.42mm

; external perimeters extrusion width = 0.42mm
; perimeters extrusion width = 0.44mm
; infill extrusion width = 0.44mm
; solid infill extrusion width = 0.44mm
; top infill extrusion width = 0.40mm
; first layer extrusion width = 0.42mm

; external perimeters extrusion width = 0.42mm
; perimeters extrusion width = 0.44mm
; infill extrusion width = 0.44mm
; solid infill extrusion width = 0.44mm
; top infill extrusion width = 0.40mm
; first layer extrusion width = 0.42mm

M201 X500 Y500 Z100 E5000 ; sets maximum accelerations, mm/sec^2
M203 X500 Y500 Z10 E60 ; sets maximum feedrates, mm / sec
M204 S500 T1000 ; sets acceleration (S) and retract acceleration (R), mm/sec^2
M205 X8.00 Y8.00 Z0.40 E5.00 ; sets the jerk limits, mm/sec
M205 S0 T0 ; sets the minimum extruding and travel feed rate, mm/sec

; printing object alby-Part_top.stl id:1 copy 0
; stop printing object alby-Part_top.stl id:1 copy 0
; printing object levantador.stl id:2 copy 0
; stop printing object levantador.stl id:2 copy 0
; printing object alby-Part_bottom.stl id:0 copy 0
; stop printing object alby-Part_bottom.stl id:0 copy 0

;TYPE:Custom
G90 ; use absolute coordinates
M83 ; extruder relative mode
M104 S150 ; set temporary nozzle temp to prevent oozing during homing
M140 S60 ; set final bed temp
G4 S30 ; allow partial nozzle warmup
G28 ; home all axis
G1 Z50 F240
G1 X2.0 Y10 F3000
M104 S200 ; set final nozzle temp
M190 S60 ; wait for bed temp to stabilize
M109 S200 ; wait for nozzle temp to stabilize
G1 Z0.28 F240
G92 E0
G1 X2.0 Y140 E10 F1500 ; prime the nozzle
G1 X2.3 Y140 F5000
G92 E0
G1 X2.3 Y10 E10 F1200 ; prime the nozzle
G92 E0
G21 ; set units to millimeters
G90 ; use absolute coordinates
M83 ; use relative distances for extrusion
; Filament gcode
M107
;LAYER_CHANGE
M300 P900 S900
;Z:0.2
;HEIGHT:0.2
G1 E-5 F3600
G1 Z.2 F9000
G1 X24.495 Y21.401
G1 Z.2
G1 E5 F2400
M204 S500
;TYPE:Skirt/Brim
;WIDTH:0.42
G1 F1200
G1 X25.141 Y20.661 E.03388
G1 X26.154 Y19.665 E.049
G1 X27.13 Y18.843 E.04401
G1 X28.548 Y17.864 E.05943
G1 X29.792 Y17.193 E.04875
G1 X31.352 Y16.572 E.05791
G1 X32.544 Y16.246 E.04262
G1 X54.274 Y12.729 E.75921
G1 X55.022 Y12.679 E.02586
G1 X77.591 Y16.145 E.78752
G1 X79.117 Y16.533 E.05431
G1 X80.381 Y17.008 E.04657
G1 X81.691 Y17.68 E.05078
G1 X82.818 Y18.437 E.04682
G1 X84.905 Y20.242 E.09517
G1 X86.948 Y22.531 E.10582
G1 X88.7 Y25.075 E.10654
G1 X89.939 Y27.371 E.08998
G1 X90.894 Y29.427 E.07819
G1 X92.506 Y33.57 E.15333
G1 X93.849 Y37.888 E.15596
G1 X94.962 Y42.471 E.16266
G1 X95.426 Y44.897 E.08519
G1 X96.036 Y49.306 E.15351
G1 X96.214 Y51.506 E.07613
G1 X96.294 Y53.776 E.07834
G1 X96.021 Y140.099 E2.97727
G1 X92.239 Y184.635 E1.54156
G1 X92.068 Y185.775 E.03976
G1 X91.816 Y186.743 E.0345
G1 X91.352 Y187.943 E.04437
G1 X90.904 Y188.797 E.03326
G1 X90.276 Y189.737 E.03899
G1 X89.678 Y190.456 E.03225
G1 X88.805 Y191.301 E.0419
G1 X87.945 Y191.962 E.03741
G1 X86.921 Y192.58 E.04125
G1 X35.013 Y215.931 E1.9631
G1 X33.474 Y216.261 E.05429
G1 X13.474 Y216.261 E.68979
G1 X11.798 Y215.866 E.05939
G1 X10.475 Y214.765 E.05936
G1 X9.72 Y212.506 E.08215
G1 X9.72 Y192.506 E.68979
G1 X14.339 Y51.722 E4.85821
G1 X14.536 Y49.288 E.08422
G1 X14.857 Y46.752 E.08816
G1 X15.429 Y43.367 E.1184
G1 X16.341 Y39.254 E.1453
G1 X17.483 Y35.228 E.14433
G1 X18.815 Y31.452 E.1381
G1 X20.288 Y28.05 E.12786
G1 X21.913 Y25.008 E.11895
G1 X23.221 Y23.005 E.08251
G1 X24.082 Y21.874 E.04902
G1 X24.455 Y21.447 E.01955
G1 X24.455 Y21.447 F9000
G1 X24.739 Y21.695
G1 F1200
G1 X25.419 Y20.916 E.03566
G1 X26.404 Y19.948 E.04763
G1 X27.357 Y19.144 E.043
G1 X28.749 Y18.183 E.05834
G1 X29.947 Y17.536 E.04696
G1 X31.475 Y16.928 E.05672
G1 X32.632 Y16.613 E.04136
G1 X54.334 Y13.102 E.75823
G1 X55.013 Y13.056 E.02347
G1 X77.514 Y16.514 E.78516
G1 X79.008 Y16.894 E.05317
G1 X80.225 Y17.351 E.04484
G1 X81.502 Y18.006 E.0495
G1 X82.599 Y18.744 E.0456
G1 X84.645 Y20.515 E.09333
G1 X86.656 Y22.77 E.10421
G1 X88.379 Y25.273 E.1048
G1 X89.604 Y27.544 E.08899
G1 X90.546 Y29.571 E.07709
G1 X92.148 Y33.688 E.15237
G1 X93.487 Y37.994 E.15553
G1 X94.594 Y42.554 E.16184
G1 X95.053 Y44.955 E.08431
G1 X95.662 Y49.35 E.15303
G1 X95.838 Y51.536 E.07564
G1 X95.917 Y53.776 E.07731
G1 X95.644 Y140.093 E2.97706
G1 X91.863 Y184.602 E1.54063
G1 X91.7 Y185.692 E.03801
G1 X91.458 Y186.625 E.03324
G1 X91.008 Y187.79 E.04307
G1 X90.577 Y188.611 E.03198
G1 X89.979 Y189.505 E.0371
G1 X89.403 Y190.198 E.03108
G1 X88.556 Y191.018 E.04066
G1 X87.736 Y191.648 E.03566
G1 X86.741 Y192.248 E.04007
G1 X34.858 Y215.587 E1.96215
G1 X33.474 Y215.884 E.04882
G1 X13.474 Y215.884 E.68979
G1 X11.891 Y215.489 E.05627
G1 X10.677 Y214.399 E.05627
G1 X10.097 Y212.506 E.06828
G1 X10.097 Y192.506 E.68979
G1 X14.716 Y51.734 E4.8578
G1 X14.91 Y49.336 E.08298
G1 X15.231 Y46.8 E.08816
G1 X15.798 Y43.443 E.11742
G1 X16.708 Y39.341 E.14492
G1 X17.844 Y35.336 E.14358
G1 X19.168 Y31.584 E.13723
G1 X20.579 Y28.316 E.12277
G1 X22.24 Y25.196 E.12191
G1 X23.523 Y23.23 E.08097
G1 X24.373 Y22.113 E.04841
G1 X24.7 Y21.74 E.01711
; printing object alby-Part_top.stl id:1 copy 0
G1 E-3.5 F3600
;WIPE_START
G1 F7200
G1 X24.739 Y21.695 E-.02829
G1 X25.419 Y20.916 E-.49117
G1 X26.404 Y19.948 E-.65599
G1 X26.926 Y19.507 E-.32455
;WIPE_END
G1 X66.706 Y90.455 F9000
G1 E5 F2400
;TYPE:Perimeter
;WIDTH:0.598206
G1 F1200
G1 X66.69 Y90.57 E.0059
G1 X66.563 Y90.724 E.01014
G1 X66.376 Y90.759 E.00966
G1 X66.168 Y90.624 E.01259
G1 X66.13 Y90.431 E.00999
G1 X66.224 Y90.253 E.01022
G1 X66.4 Y90.182 E.00964
G1 X66.631 Y90.274 E.01263
G1 X66.683 Y90.4 E.00692
G1 X66.683 Y90.4 F9000
G1 X67.172 Y90.432
;WIDTH:0.419999
G1 F1200
G1 X67.176 Y90.51 E.00269
G1 X67.102 Y90.802 E.01039
G1 X66.92 Y91.042 E.01039
G1 X66.659 Y91.192 E.01038
G1 X66.36 Y91.23 E.0104
G1 X65.957 Y91.075 E.01489
G1 X65.769 Y90.868 E.00964
G1 X65.665 Y90.585 E.0104
G1 X65.681 Y90.284 E.0104
G1 X65.811 Y90.013 E.01037
G1 X66.037 Y89.814 E.01039
G1 X66.322 Y89.718 E.01037
G1 X66.675 Y89.771 E.01231
G1 X66.901 Y89.891 E.00883
G1 X67.096 Y90.139 E.01088
G1 X67.157 Y90.374 E.00837
G1 X67.157 Y90.374 F9000
G1 X67.549 Y90.413
;TYPE:External perimeter
G1 F1200
G1 X67.521 Y90.753 E.01177
G1 X67.325 Y91.159 E.01555
G1 X66.986 Y91.458 E.01559
G1 X66.559 Y91.602 E.01554
G1 X66.241 Y91.591 E.01097
G1 X65.862 Y91.447 E.01398
G1 X65.582 Y91.246 E.01189
G1 X65.347 Y90.861 E.01556
G1 X65.279 Y90.415 E.01556
G1 X65.391 Y89.978 E.01556
G1 X65.663 Y89.618 E.01556
G1 X66.054 Y89.392 E.01558
G1 X66.495 Y89.336 E.01533
G1 X66.892 Y89.437 E.01413
G1 X67.252 Y89.697 E.01532
G1 X67.487 Y90.082 E.01556
G1 X67.538 Y90.354 E.00954
G1 E-3.5 F3600
;WIPE_START
G1 F7200
G1 X67.549 Y90.413 E-.02851
G1 X67.521 Y90.753 E-.16205
G1 X67.325 Y91.159 E-.21415
G1 X66.986 Y91.458 E-.21471
G1 X66.559 Y91.602 E-.21405
G1 X66.241 Y91.591 E-.15114
G1 X65.862 Y91.447 E-.19258
G1 X65.582 Y91.246 E-.16372
G1 X65.407 Y90.96 E-.15909
;WIPE_END
G1 X43.563 Y90.724 F9000
G1 E5 F2400
;TYPE:Perimeter
;WIDTH:0.598211
G1 F1200
G1 X43.315 Y90.743 E.01263
G1 X43.168 Y90.624 E.00961
G1 X43.13 Y90.43 E.01004
G1 X43.224 Y90.253 E.01018
G1 X43.4 Y90.182 E.00964
G1 X43.631 Y90.274 E.01263
G1 X43.706 Y90.455 E.00995
G1 X43.69 Y90.569 E.00585
G1 X43.601 Y90.678 E.00715
G1 X43.601 Y90.678 F9000
G1 X43.659 Y91.192
;WIDTH:0.419999
G1 F1200
G1 X43.228 Y91.206 E.01487
G1 X42.973 Y91.089 E.00968
G1 X42.769 Y90.868 E.01037
G1 X42.665 Y90.585 E.0104
G1 X42.681 Y90.284 E.0104
G1 X42.811 Y90.013 E.01037
G1 X43.037 Y89.814 E.01039
G1 X43.322 Y89.718 E.01037
G1 X43.675 Y89.771 E.01231
G1 X43.901 Y89.891 E.00883
G1 X44.096 Y90.139 E.01088
G1 X44.172 Y90.432 E.01044
G1 X44.176 Y90.51 E.00269
G1 X44.102 Y90.802 E.01039
G1 X43.92 Y91.042 E.01039
G1 X43.711 Y91.162 E.00831
G1 X43.711 Y91.162 F9000
G1 X43.69 Y91.572
;TYPE:External perimeter
G1 F1200
G1 X43.284 Y91.586 E.01401
G1 X42.949 Y91.51 E.01185
G1 X42.582 Y91.246 E.01559
G1 X42.347 Y90.861 E.01556
G1 X42.279 Y90.415 E.01556
G1 X42.391 Y89.978 E.01556
G1 X42.663 Y89.618 E.01556
G1 X43.054 Y89.392 E.01558
G1 X43.495 Y89.336 E.01533
G1 X43.892 Y89.437 E.01413
G1 X44.252 Y89.697 E.01532
G1 X44.487 Y90.082 E.01556
G1 X44.549 Y90.413 E.01161
G1 X44.521 Y90.753 E.01177
G1 X44.325 Y91.159 E.01555
G1 X43.986 Y91.458 E.01559
G1 X43.746 Y91.55 E.00886
G1 E-3.5 F3600
;WIPE_START
G1 F7200
G1 X43.69 Y91.572 E-.02858
G1 X43.284 Y91.586 E-.19296
G1 X42.949 Y91.51 E-.16317
G1 X42.582 Y91.246 E-.21474
G1 X42.347 Y90.861 E-.21425
G1 X42.279 Y90.415 E-.2143
G1 X42.391 Y89.978 E-.21428
G1 X42.663 Y89.618 E-.21432
G1 X42.742 Y89.572 E-.0434
;WIPE_END
G1 X43.706 Y32.455 F9000
G1 E5 F2400
;TYPE:Perimeter
;WIDTH:0.59923
G1 F1200
G1 X43.689 Y32.57 E.00592
G1 X43.562 Y32.724 E.01016
G1 X43.375 Y32.758 E.00967
G1 X43.174 Y32.63 E.01213
G1 X43.13 Y32.432 E.01032
G1 X43.224 Y32.254 E.01024
G1 X43.4 Y32.183 E.00966
G1 X43.63 Y32.274 E.01259
G1 X43.683 Y32.4 E.00696
G1 X43.683 Y32.4 F9000
G1 X44.172 Y32.432
;WIDTH:0.419999
G1 F1200
G1 X44.176 Y32.51 E.00269
G1 X44.102 Y32.801 E.01036
G1 X43.92 Y33.042 E.01042
G1 X43.659 Y33.192 E.01038
G1 X43.36 Y33.23 E.0104
G1 X43.09 Y33.156 E.00966
G1 X42.768 Y32.868 E.0149
G1 X42.665 Y32.585 E.01039
G1 X42.681 Y32.284 E.0104
G1 X42.811 Y32.013 E.01037
G1 X43.037 Y31.814 E.01039
G1 X43.322 Y31.718 E.01037
G1 X43.675 Y31.771 E.01231
G1 X43.901 Y31.891 E.00883
G1 X44.096 Y32.139 E.01088
G1 X44.157 Y32.374 E.00837
G1 X44.157 Y32.374 F9000
G1 X44.549 Y32.413
;TYPE:External perimeter
G1 F1200
G1 X44.554 Y32.529 E.004
G1 X44.443 Y32.966 E.01555
G1 X44.171 Y33.326 E.01556
G1 X43.78 Y33.551 E.01556
G1 X43.332 Y33.607 E.01557
G1 X42.904 Y33.488 E.01532
G1 X42.578 Y33.241 E.01411
G1 X42.347 Y32.861 E.01534
G1 X42.279 Y32.415 E.01556
G1 X42.391 Y31.978 E.01556
G1 X42.663 Y31.618 E.01556
G1 X43.054 Y31.392 E.01558
G1 X43.495 Y31.336 E.01533
G1 X43.892 Y31.437 E.01413
G1 X44.252 Y31.697 E.01532
G1 X44.487 Y32.082 E.01556
G1 X44.538 Y32.354 E.00954
G1 E-3.5 F3600
;WIPE_START
G1 F7200
G1 X44.549 Y32.413 E-.02851
G1 X44.554 Y32.529 E-.05515
G1 X44.443 Y32.966 E-.21417
G1 X44.171 Y33.326 E-.21432
G1 X43.78 Y33.551 E-.21428
G1 X43.332 Y33.607 E-.21446
G1 X42.904 Y33.488 E-.21101
G1 X42.578 Y33.241 E-.19428
G1 X42.41 Y32.965 E-.15382
;WIPE_END
G1 X45.046 Y28.392 F9000
G1 E5 F2400
;TYPE:Perimeter
G1 F1200
G1 X45.462 Y28.021 E.01922
G1 X46.219 Y27.29 E.03629
G1 X46.986 Y26.505 E.03785
G1 X48.548 Y24.755 E.0809
G1 X52.303 Y20.155 E.2048
G1 X53.531 Y18.784 E.06348
G1 X53.929 Y18.388 E.01936
G1 X54.433 Y17.986 E.02224
G1 X54.905 Y17.689 E.01923
G1 X55.628 Y18.257 E.03171
G1 X56.161 Y18.759 E.02525
G1 X56.985 Y19.61 E.04086
G1 X57.97 Y20.727 E.05136
G1 X58.989 Y21.987 E.05589
G1 X60.406 Y23.796 E.07925
G1 X61.568 Y25.224 E.0635
G1 X62.343 Y26.119 E.04083
G1 X63.362 Y27.184 E.05084
G1 X63.852 Y27.64 E.02309
G1 X64.37 Y28.08 E.02344
G1 X64.776 Y28.392 E.01766
G1 X64.131 Y28.7 E.02465
G1 X63.432 Y29.225 E.03015
G1 X62.959 Y29.734 E.02396
G1 X62.651 Y30.203 E.01935
G1 X62.403 Y30.643 E.01742
G1 X62.167 Y31.293 E.02385
G1 X62.104 Y31.583 E.01024
G1 X62.008 Y32.346 E.02652
G1 X62.043 Y33.036 E.02383
G1 X62.096 Y33.322 E.01003
G1 X62.332 Y34.124 E.02883
G1 X62.703 Y34.851 E.02815
G1 X63.248 Y35.54 E.0303
G1 X63.919 Y36.107 E.0303
G1 X64.689 Y36.53 E.0303
G1 X65.42 Y36.772 E.02656
G1 X65.939 Y36.858 E.01814
G1 X66.62 Y36.878 E.0235
G1 X67.49 Y36.75 E.03033
G1 X68.316 Y36.453 E.03027
G1 X69.067 Y35.997 E.0303
G1 X69.713 Y35.402 E.03029
G1 X70.218 Y34.712 E.02949
G1 X70.455 Y34.251 E.01788
G1 X70.614 Y33.783 E.01705
G1 X70.758 Y33.254 E.01891
G1 X70.827 Y32.566 E.02385
G1 X70.801 Y32.123 E.01531
G1 X70.72 Y31.504 E.02153
G1 X70.457 Y30.698 E.02924
G1 X70.218 Y30.232 E.01806
G1 X69.973 Y29.885 E.01465
G1 X69.577 Y29.398 E.02165
G1 X69.183 Y29.058 E.01795
G1 X68.729 Y28.805 E.01793
G1 X68.871 Y28.588 E.00894
G1 X69.114 Y28.031 E.02096
G1 X69.479 Y26.868 E.04204
G1 X69.889 Y25.743 E.0413
G1 X70.332 Y24.743 E.03772
G1 X70.871 Y23.756 E.03879
G1 X71.2 Y23.254 E.0207
G1 X71.735 Y22.568 E.03
G1 X72.29 Y21.999 E.02741
G1 X72.692 Y21.678 E.01774
G1 X73.104 Y21.386 E.01742
G1 X73.693 Y21.076 E.02296
G1 X74.284 Y20.924 E.02105
G1 X74.944 Y20.841 E.02294
G1 X75.911 Y20.868 E.03336
G1 X76.975 Y21.042 E.03718
G1 X77.664 Y21.233 E.02466
G1 X78.709 Y21.653 E.03884
G1 X79.2 Y21.922 E.01931
G1 X79.945 Y22.43 E.0311
G1 X80.376 Y22.769 E.01891
G1 X80.934 Y23.253 E.02548
G1 X81.496 Y23.787 E.02674
G1 X82.053 Y24.366 E.02771
G1 X82.598 Y24.981 E.02834
G1 X83.124 Y25.624 E.02865
G1 X83.621 Y26.287 E.02858
G1 X84.083 Y26.961 E.02818
G1 X84.504 Y27.642 E.02761
G1 X85.035 Y28.59 E.03748
G1 X85.555 Y29.601 E.03921
G1 X86.358 Y31.329 E.06572
G1 X87.122 Y33.177 E.06897
G1 X87.841 Y35.128 E.07171
G1 X88.511 Y37.161 E.07383
G1 X89.124 Y39.253 E.07519
G1 X89.676 Y41.384 E.07592
G1 X90.159 Y43.533 E.07597
G1 X90.57 Y45.677 E.07529
G1 X90.902 Y47.796 E.07398
G1 X91.15 Y49.868 E.07197
G1 X91.309 Y51.87 E.06927
G1 X91.371 Y54.111 E.07732
G1 X91.355 Y55.235 E.03877
G1 X91.284 Y56.197 E.03327
G1 X91.218 Y56.833 E.02205
G1 X91.135 Y57.361 E.01843
G1 X90.903 Y58.374 E.03584
G1 X90.748 Y58.879 E.01822
G1 X90.56 Y59.397 E.01901
G1 X90.352 Y59.894 E.01858
G1 X90.088 Y60.446 E.0211
G1 X89.793 Y60.973 E.02083
G1 X89.459 Y61.462 E.02042
G1 X88.865 Y62.203 E.03275
G1 X88.184 Y62.953 E.03494
G1 X87.666 Y63.465 E.02512
G1 X87.152 Y63.926 E.02381
G1 X86.759 Y64.246 E.01748
G1 X85.912 Y64.838 E.03564
G1 X85.455 Y65.242 E.02104
G1 X85.253 Y65.494 E.01114
G1 X85.024 Y65.947 E.01751
G1 X84.931 Y66.245 E.01077
G1 X84.847 Y66.916 E.02332
G1 X84.836 Y67.491 E.01984
G1 X84.742 Y68.387 E.03107
G1 X84.535 Y69.622 E.04319
G1 X84.218 Y71.098 E.05207
G1 X83.709 Y73.02 E.06857
G1 X83.218 Y74.617 E.05762
G1 X82.676 Y76.168 E.05667
G1 X82.082 Y77.673 E.0558
G1 X81.435 Y79.134 E.05511
G1 X80.734 Y80.556 E.05468
G1 X79.977 Y81.939 E.05438
G1 X79.165 Y83.287 E.05428
G1 X78.295 Y84.601 E.05435
G1 X77.258 Y86.027 E.06081
G1 X76.008 Y87.583 E.06884
G1 X74.292 Y89.615 E.09173
G1 X74.092 Y89.969 E.01402
G1 X74.05 Y90.291 E.0112
G1 X74.099 Y90.551 E.00913
G1 X74.334 Y90.923 E.01518
G1 X76.264 Y92.797 E.09278
G1 X76.822 Y93.227 E.0243
G1 X77.285 Y93.447 E.01768
G1 X77.745 Y93.535 E.01615
G1 X78.291 Y93.491 E.01889
G1 X79.099 Y93.268 E.02891
G1 X79.732 Y93.167 E.02211
G1 X80.592 Y93.097 E.02976
G1 X81.236 Y93.09 E.02221
G1 X81.787 Y93.132 E.01906
G1 X82.391 Y93.237 E.02114
G1 X82.861 Y93.421 E.01741
G1 X83.367 Y93.696 E.01986
G1 X83.897 Y94.029 E.02159
G1 X84.417 Y94.455 E.02318
G1 X84.83 Y94.878 E.02039
G1 X85.207 Y95.375 E.02151
G1 X85.542 Y95.969 E.02352
G1 X85.774 Y96.546 E.02145
G1 X85.938 Y97.162 E.02199
G1 X86.028 Y97.668 E.01773
G1 X86.067 Y98.296 E.0217
G1 X86.023 Y98.922 E.02164
G1 X85.914 Y99.494 E.02008
G1 X85.722 Y100.121 E.02262
G1 X85.503 Y100.635 E.01927
G1 X85.152 Y101.211 E.02326
G1 X84.725 Y101.766 E.02415
G1 X84.327 Y102.159 E.01929
G1 X83.901 Y102.507 E.01897
G1 X83.471 Y102.793 E.01781
G1 X82.983 Y103.038 E.01883
G1 X82.328 Y103.303 E.02437
G1 X81.825 Y103.417 E.01779
G1 X81.145 Y103.516 E.0237
G1 X80.64 Y103.512 E.01742
G1 X79.962 Y103.454 E.02347
G1 X79.262 Y103.287 E.02482
G1 X78.8 Y103.11 E.01706
G1 X78.191 Y102.824 E.02321
G1 X77.586 Y102.421 E.02507
G1 X77.063 Y101.951 E.02425
G1 X76.604 Y101.423 E.02413
G1 X76.226 Y100.816 E.02466
G1 X75.923 Y100.148 E.0253
G1 X75.777 Y99.665 E.0174
G1 X75.675 Y99.153 E.01801
G1 X75.623 Y98.615 E.01864
G1 X75.628 Y97.956 E.02273
G1 X75.757 Y96.917 E.03611
G1 X75.891 Y96.339 E.02046
G1 X76.409 Y95.072 E.04721
G1 X76.479 Y94.722 E.01231
G1 X76.414 Y94.37 E.01235
G1 X76.203 Y94.048 E.01328
G1 X73.71 Y91.555 E.1216
G1 X73.324 Y91.259 E.01678
G1 X73.071 Y91.187 E.00907
G1 X72.767 Y91.195 E.01049
G1 X72.41 Y91.343 E.01333
G1 X70.047 Y92.961 E.09877
G1 X70.229 Y92.691 E.01123
G1 X70.593 Y91.892 E.03028
G1 X70.791 Y91.038 E.03024
