; generated by PrusaSlicer 2.7.2+linux-x64-GTK3 on 2024-06-11 at 13:25:22 UTC

; 

; external perimeters extrusion width = 0.42mm
; perimeters extrusion width = 0.44mm
; infill extrusion width = 0.44mm
; solid infill extrusion width = 0.44mm
; top infill extrusion width = 0.40mm
; support material extrusion width = 0.36mm
; first layer extrusion width = 0.42mm

; external perimeters extrusion width = 0.42mm
; perimeters extrusion width = 0.44mm
; infill extrusion width = 0.44mm
; solid infill extrusion width = 0.44mm
; top infill extrusion width = 0.40mm
; support material extrusion width = 0.36mm
; first layer extrusion width = 0.42mm

; external perimeters extrusion width = 0.42mm
; perimeters extrusion width = 0.44mm
; infill extrusion width = 0.44mm
; solid infill extrusion width = 0.44mm
; top infill extrusion width = 0.40mm
; support material extrusion width = 0.36mm
; first layer extrusion width = 0.42mm

; external perimeters extrusion width = 0.42mm
; perimeters extrusion width = 0.44mm
; infill extrusion width = 0.44mm
; solid infill extrusion width = 0.44mm
; top infill extrusion width = 0.40mm
; support material extrusion width = 0.36mm
; first layer extrusion width = 0.42mm

; external perimeters extrusion width = 0.42mm
; perimeters extrusion width = 0.44mm
; infill extrusion width = 0.44mm
; solid infill extrusion width = 0.44mm
; top infill extrusion width = 0.40mm
; support material extrusion width = 0.36mm
; first layer extrusion width = 0.42mm

; external perimeters extrusion width = 0.42mm
; perimeters extrusion width = 0.44mm
; infill extrusion width = 0.44mm
; solid infill extrusion width = 0.44mm
; top infill extrusion width = 0.40mm
; support material extrusion width = 0.36mm
; first layer extrusion width = 0.42mm

; external perimeters extrusion width = 0.42mm
; perimeters extrusion width = 0.44mm
; infill extrusion width = 0.44mm
; solid infill extrusion width = 0.44mm
; top infill extrusion width = 0.40mm
; support material extrusion width = 0.36mm
; first layer extrusion width = 0.42mm

; external perimeters extrusion width = 0.42mm
; perimeters extrusion width = 0.44mm
; infill extrusion width = 0.44mm
; solid infill extrusion width = 0.44mm
; top infill extrusion width = 0.40mm
; support material extrusion width = 0.36mm
; first layer extrusion width = 0.42mm

M201 X500 Y500 Z100 E5000 ; sets maximum accelerations, mm/sec^2
M203 X500 Y500 Z10 E60 ; sets maximum feedrates, mm / sec
M204 S500 T1000 ; sets acceleration (S) and retract acceleration (R), mm/sec^2
M205 X8.00 Y8.00 Z0.40 E5.00 ; sets the jerk limits, mm/sec
M205 S0 T0 ; sets the minimum extruding and travel feed rate, mm/sec

; printing object alby_encastre_macho.stl id:3 copy 0
; stop printing object alby_encastre_macho.stl id:3 copy 0
; printing object alby_encastre_hembra.stl id:4 copy 0
; stop printing object alby_encastre_hembra.stl id:4 copy 0
; printing object alby_encastre_macho.stl id:5 copy 0
; stop printing object alby_encastre_macho.stl id:5 copy 0
; printing object alby_encastre_hembra.stl id:2 copy 0
; stop printing object alby_encastre_hembra.stl id:2 copy 0
; printing object alby_encastre_hembra.stl id:6 copy 0
; stop printing object alby_encastre_hembra.stl id:6 copy 0
; printing object alby_encastre_macho.stl id:7 copy 0
; stop printing object alby_encastre_macho.stl id:7 copy 0
; printing object alby_encastre_hembra.stl id:0 copy 0
; stop printing object alby_encastre_hembra.stl id:0 copy 0
; printing object alby_encastre_macho.stl id:1 copy 0
; stop printing object alby_encastre_macho.stl id:1 copy 0

;TYPE:Custom
G90 ; use absolute coordinates
M83 ; extruder relative mode
M104 S150 ; set temporary nozzle temp to prevent oozing during homing
M140 S60 ; set final bed temp
G4 S30 ; allow partial nozzle warmup
G28 ; home all axis
G1 Z50 F240
G1 X2.0 Y10 F3000
M104 S200 ; set final nozzle temp
M190 S60 ; wait for bed temp to stabilize
M109 S200 ; wait for nozzle temp to stabilize
G1 Z0.28 F240
G92 E0
G1 X2.0 Y140 E10 F1500 ; prime the nozzle
G1 X2.3 Y140 F5000
G92 E0
G1 X2.3 Y10 E10 F1200 ; prime the nozzle
G92 E0
G21 ; set units to millimeters
G90 ; use absolute coordinates
M83 ; use relative distances for extrusion
; Filament gcode
M107
;LAYER_CHANGE
M300 P900 S900
;Z:0.2
;HEIGHT:0.2
G1 E-5 F3600
G1 Z.2 F9000
G1 X9.168 Y12.701
G1 Z.2
G1 E5 F2400
M204 S500
;TYPE:Skirt/Brim
;WIDTH:0.42
G1 F1200
G1 X10.184 Y12.237 E.03852
G1 X36.268 Y5.227 E.93155
G1 X37.144 Y5.112 E.03047
G1 X51.063 Y5.112 E.48006
G1 X52.647 Y5.506 E.0563
G1 X53.453 Y6.103 E.03459
G1 X67.447 Y20.117 E.68306
G1 X68.287 Y21.516 E.05628
G1 X68.435 Y22.504 E.03446
G1 X68.435 Y36.423 E.48006
G1 X68.041 Y38.006 E.05626
G1 X67.447 Y38.809 E.03445
G1 X53.453 Y52.824 E.68308
G1 X52.056 Y53.666 E.05626
G1 X51.063 Y53.815 E.03463
G1 X37.144 Y53.815 E.48006
G1 X36.268 Y53.699 E.03048
G1 X10.184 Y46.69 E.93154
G1 X8.758 Y45.899 E.05624
G1 X7.868 Y44.531 E.05629
G1 X7.684 Y43.429 E.03853
G1 X7.684 Y15.498 E.96333
G1 X8.078 Y13.915 E.05626
G1 X9.128 Y12.746 E.05419
; printing object alby_encastre_hembra.stl id:6 copy 0
G1 E-3.5 F3600
;WIPE_START
G1 F7200
G1 X9.168 Y12.701 E-.0286
G1 X10.184 Y12.237 E-.53055
G1 X12.097 Y11.723 E-.94085
;WIPE_END
G1 X24.98 Y43.429 F9000
G1 E5 F2400
;TYPE:Support material
G1 F1200
G1 X11.061 Y43.429 E.48006
G1 X11.061 Y29.509 E.4801
G1 X24.98 Y29.509 E.48006
G1 X24.98 Y43.372 E.47813
G1 E-3.5 F3600
;WIPE_START
G1 F7200
G1 X24.98 Y40.214 E-1.5
;WIPE_END
G1 X18.11 Y32.915 F9000
G1 E5 F2400
G1 F1200
G1 X18.988 Y33.044 E.03061
G1 X19.702 Y33.334 E.02658
G1 X20.336 Y33.77 E.02654
G1 X20.832 Y34.293 E.02486
G1 X21.234 Y34.951 E.02659
G1 X21.485 Y35.679 E.02656
G1 X21.573 Y36.444 E.02656
G1 X21.495 Y37.21 E.02656
G1 X21.255 Y37.942 E.02657
G1 X20.862 Y38.605 E.02658
G1 X20.336 Y39.168 E.02657
G1 X19.658 Y39.628 E.02826
G1 X18.94 Y39.908 E.02658
G1 X18.179 Y40.027 E.02657
G1 X17.41 Y39.98 E.02657
G1 X16.67 Y39.769 E.02654
G1 X16.033 Y39.431 E.02487
G1 X15.443 Y38.937 E.02654
G1 X14.946 Y38.284 E.0283
G1 X14.628 Y37.583 E.02655
G1 X14.468 Y36.829 E.02658
G1 X14.468 Y36.109 E.02483
G1 X14.628 Y35.355 E.02658
G1 X14.946 Y34.654 E.02655
G1 X15.408 Y34.038 E.02656
G1 X15.992 Y33.535 E.02658
G1 X16.67 Y33.169 E.02657
G1 X17.41 Y32.958 E.02654
G1 X18.053 Y32.918 E.02222
G1 E-3.5 F3600
;WIPE_START
G1 F7200
G1 X17.41 Y32.958 E-.30602
G1 X16.67 Y33.169 E-.36551
G1 X15.992 Y33.535 E-.36598
G1 X15.408 Y34.038 E-.36611
G1 X15.286 Y34.2 E-.09638
;WIPE_END
G1 X24.305 Y43.259 F9000
G1 E5 F2400
G1 F1200
G1 X24.305 Y29.849 E.46251
G1 X23.886 Y29.849 E.01445
G1 X23.886 Y43.089 E.45664
G1 X23.467 Y43.089 E.01445
G1 X23.467 Y29.849 E.45664
G1 X23.048 Y29.849 E.01445
G1 X23.048 Y43.089 E.45664
G1 X22.629 Y43.089 E.01445
G1 X22.629 Y29.849 E.45664
G1 X22.21 Y29.849 E.01445
G1 X22.21 Y43.089 E.45664
G1 X21.791 Y43.089 E.01445
G1 X21.791 Y29.849 E.45664
G1 X21.372 Y29.849 E.01445
G1 X21.372 Y34.523 E.1612
G1 X20.953 Y33.928 E.0251
G1 X20.953 Y29.849 E.14068
G1 X20.534 Y29.849 E.01445
G1 X20.534 Y33.493 E.12568
G1 X20.115 Y33.204 E.01756
G1 X20.115 Y29.849 E.11571
G1 X19.696 Y29.849 E.01445
G1 X19.696 Y32.96 E.1073
G1 X19.277 Y32.793 E.01556
G1 X19.277 Y29.849 E.10154
G1 X18.858 Y29.849 E.01445
G1 X18.858 Y32.673 E.0974
G1 X18.439 Y32.604 E.01465
G1 X18.439 Y29.849 E.09502
G1 X18.02 Y29.849 E.01445
G1 X18.02 Y32.58 E.09419
G1 X17.601 Y32.602 E.01447
G1 X17.601 Y29.849 E.09495
G1 X17.182 Y29.849 E.01445
G1 X17.182 Y32.669 E.09726
G1 X16.763 Y32.785 E.01499
G1 X16.763 Y29.849 E.10126
G1 X16.344 Y29.849 E.01445
G1 X16.344 Y32.958 E.10723
G1 X15.926 Y33.18 E.01632
G1 X15.926 Y29.849 E.11489
G1 X15.507 Y29.849 E.01445
G1 X15.507 Y33.502 E.12599
G1 X15.088 Y33.899 E.01991
G1 X15.088 Y29.849 E.13968
G1 X14.669 Y29.849 E.01445
G1 X14.669 Y34.85 E.17248
G1 E-3.5 F3600
;WIPE_START
G1 F7200
G1 X14.669 Y31.692 E-1.5
;WIPE_END
G1 X21.372 Y43.259 F9000
G1 E5 F2400
G1 F1200
G1 X21.372 Y38.415 E.16707
G1 X20.953 Y39.01 E.0251
G1 X20.953 Y43.089 E.14068
G1 X20.534 Y43.089 E.01445
G1 X20.534 Y39.445 E.12568
G1 X20.115 Y39.734 E.01756
G1 X20.115 Y43.089 E.11571
G1 X19.696 Y43.089 E.01445
G1 X19.696 Y39.978 E.1073
G1 X19.277 Y40.145 E.01556
G1 X19.277 Y43.089 E.10154
G1 X18.858 Y43.089 E.01445
G1 X18.858 Y40.265 E.0974
G1 X18.439 Y40.334 E.01465
G1 X18.439 Y43.089 E.09502
G1 X18.02 Y43.089 E.01445
G1 X18.02 Y40.358 E.09419
G1 X17.601 Y40.336 E.01447
G1 X17.601 Y43.089 E.09495
G1 X17.182 Y43.089 E.01445
G1 X17.182 Y40.269 E.09726
G1 X16.763 Y40.153 E.01499
G1 X16.763 Y43.089 E.10126
G1 X16.344 Y43.089 E.01445
G1 X16.344 Y39.981 E.10719
G1 X15.926 Y39.758 E.01634
G1 X15.926 Y43.089 E.11489
G1 X15.507 Y43.089 E.01445
G1 X15.507 Y39.436 E.12599
G1 X15.088 Y39.04 E.01988
G1 X15.088 Y43.089 E.13965
G1 X14.669 Y43.089 E.01445
G1 X14.669 Y38.088 E.17248
G1 X14.669 Y38.088 F9000
G1 X14.25 Y43.259
G1 F1200
G1 X14.25 Y29.849 E.46251
G1 X13.831 Y29.849 E.01445
G1 X13.831 Y43.089 E.45664
G1 X13.412 Y43.089 E.01445
G1 X13.412 Y29.849 E.45664
G1 X12.993 Y29.849 E.01445
G1 X12.993 Y43.089 E.45664
G1 X12.574 Y43.089 E.01445
G1 X12.574 Y29.849 E.45664
G1 X12.155 Y29.849 E.01445
G1 X12.155 Y43.089 E.45664
G1 X11.736 Y43.089 E.01445
G1 X11.736 Y29.679 E.46251
G1 E-3.5 F3600
;WIPE_START
G1 F7200
G1 X11.736 Y32.837 E-1.5
;WIPE_END
G1 X16.447 Y34.161 F9000
G1 E5 F2400
;TYPE:External perimeter
;WIDTH:0.419999
G1 F1200
G1 X16.9 Y33.921 E.01768
G1 X17.14 Y33.834 E.0088
G1 X17.638 Y33.713 E.01768
G1 X18.212 Y33.693 E.01981
G1 X18.77 Y33.795 E.01956
G1 X19.363 Y34.036 E.02208
G1 X19.851 Y34.381 E.02061
G1 X20.257 Y34.825 E.02075
G1 X20.558 Y35.346 E.02075
G1 X20.742 Y35.94 E.02145
G1 X20.794 Y36.519 E.02005
G1 X20.734 Y37.068 E.01905
G1 X20.542 Y37.64 E.02081
G1 X20.231 Y38.156 E.02078
G1 X19.816 Y38.594 E.02081
G1 X19.317 Y38.932 E.02079
G1 X18.757 Y39.156 E.0208
G1 X18.162 Y39.253 E.02079
G1 X17.56 Y39.221 E.02079
G1 X16.979 Y39.059 E.0208
G1 X16.447 Y38.777 E.02077
G1 X15.987 Y38.386 E.02082
G1 X15.622 Y37.907 E.02077
G1 X15.369 Y37.359 E.02082
G1 X15.24 Y36.771 E.02076
G1 X15.24 Y36.168 E.0208
G1 X15.369 Y35.579 E.0208
G1 X15.622 Y35.032 E.02079
G1 X15.987 Y34.552 E.0208
G1 X16.401 Y34.2 E.01874
G1 X16.401 Y34.2 F9000
G1 X16.359 Y35.613
G1 F1200
G1 X16.635 Y35.219 E.01659
G1 X16.974 Y34.926 E.01545
G1 X17.373 Y34.722 E.01546
G1 X17.81 Y34.62 E.01548
G1 X18.258 Y34.626 E.01545
G1 X18.692 Y34.738 E.01546
G1 X19.086 Y34.952 E.01546
G1 X19.468 Y35.327 E.01846
G1 X19.682 Y35.66 E.01365
G1 X19.822 Y36.046 E.01416
G1 X19.871 Y36.492 E.01547
G1 X19.811 Y36.936 E.01545
G1 X19.647 Y37.353 E.01545
G1 X19.388 Y37.719 E.01546
G1 X19.049 Y38.012 E.01545
G1 X18.649 Y38.216 E.01549
G1 X18.137 Y38.318 E.01801
G1 X17.747 Y38.308 E.01346
G1 X17.331 Y38.2 E.01482
G1 X16.936 Y37.987 E.01548
G1 X16.604 Y37.685 E.01548
G1 X16.354 Y37.313 E.01546
G1 X16.2 Y36.892 E.01546
G1 X16.152 Y36.444 E.01554
G1 X16.252 Y35.895 E.01925
G1 X16.338 Y35.669 E.00834
G1 X16.338 Y35.669 F9000
G1 X16.024 Y35.273
;TYPE:Perimeter
;WIDTH:0.598042
G1 F1200
G1 X16.327 Y34.872 E.02552
;WIDTH:0.593676
G1 X16.708 Y34.546 E.02526
;WIDTH:0.591218
G1 X17.152 Y34.311 E.02519
;WIDTH:0.595304
G1 X17.636 Y34.179 E.02535
;WIDTH:0.599188
G1 X18.137 Y34.154 E.02552
G1 X18.602 Y34.23 E.02397
;WIDTH:0.60205
G1 X19.1 Y34.424 E.02733
G1 X19.512 Y34.703 E.02545
G1 X19.856 Y35.066 E.02558
;WIDTH:0.601344
G1 X20.117 Y35.495 E.02565
;WIDTH:0.59675
G1 X20.279 Y35.97 E.02542
;WIDTH:0.592254
G1 X20.334 Y36.469 E.02522
;WIDTH:0.592256
G1 X20.279 Y36.968 E.02522
;WIDTH:0.59675
G1 X20.117 Y37.443 E.02542
;WIDTH:0.600122
G1 X19.857 Y37.872 E.02557
;WIDTH:0.60205
G1 X19.512 Y38.235 E.02561
;WIDTH:0.60253
G1 X19.097 Y38.516 E.02565
G1 X18.631 Y38.702 E.02568
;WIDTH:0.601566
G1 X18.137 Y38.784 E.02559
;WIDTH:0.59916
G1 X17.636 Y38.759 E.02552
;WIDTH:0.595302
G1 X17.152 Y38.627 E.02535
;WIDTH:0.591218
G1 X16.708 Y38.392 E.02519
;WIDTH:0.5937
G1 X16.326 Y38.066 E.0253
;WIDTH:0.598042
G1 X16.024 Y37.665 E.02549
;WIDTH:0.60093
G1 X15.815 Y37.209 E.0256
;WIDTH:0.602374
G1 X15.708 Y36.72 E.02561
;WIDTH:0.604674
G1 X15.709 Y36.219 E.02574
G1 X15.815 Y35.729 E.02576
;WIDTH:0.60093
G1 X15.999 Y35.328 E.02252
; stop printing object alby_encastre_hembra.stl id:6 copy 0
; printing object alby_encastre_hembra.stl id:0 copy 0
G1 E-3.5 F3600
;WIPE_START
G1 F7200
G1 X16.024 Y35.273 E-.0287
G1 X16.327 Y34.872 E-.23874
G1 X16.708 Y34.546 E-.23818
G1 X17.152 Y34.311 E-.23862
G1 X17.636 Y34.179 E-.2383
G1 X18.137 Y34.154 E-.23827
G1 X18.602 Y34.23 E-.22381
G1 X18.711 Y34.272 E-.05538
;WIPE_END
G1 X24.98 Y29.417 F9000
G1 E5 F2400
;TYPE:Support material
;WIDTH:0.42
G1 F1200
G1 X11.061 Y29.417 E.48006
G1 X11.061 Y15.498 E.48006
G1 X24.98 Y15.498 E.48006
G1 X24.98 Y29.361 E.47813
G1 E-3.5 F3600
;WIPE_START
G1 F7200
G1 X24.98 Y26.203 E-1.5
;WIPE_END
G1 X18.11 Y18.903 F9000
G1 E5 F2400
G1 F1200
G1 X18.988 Y19.032 E.03061
G1 X19.702 Y19.322 E.02658
G1 X20.336 Y19.759 E.02656
G1 X20.832 Y20.282 E.02486
G1 X21.234 Y20.939 E.02656
G1 X21.485 Y21.667 E.02656
G1 X21.573 Y22.433 E.02659
G1 X21.495 Y23.199 E.02656
G1 X21.255 Y23.931 E.02657
G1 X20.862 Y24.593 E.02655
G1 X20.336 Y25.156 E.02657
G1 X19.658 Y25.616 E.02826
G1 X18.94 Y25.897 E.02659
G1 X18.179 Y26.016 E.02657
G1 X17.41 Y25.969 E.02657
G1 X16.67 Y25.757 E.02655
G1 X16.033 Y25.42 E.02486
G1 X15.443 Y24.925 E.02656
G1 X14.946 Y24.273 E.02828
G1 X14.628 Y23.571 E.02658
G1 X14.468 Y22.818 E.02655
G1 X14.468 Y22.097 E.02487
G1 X14.628 Y21.344 E.02655
G1 X14.946 Y20.643 E.02655
G1 X15.408 Y20.026 E.02658
G1 X15.992 Y19.523 E.02658
G1 X16.67 Y19.158 E.02656
G1 X17.41 Y18.947 E.02654
G1 X18.053 Y18.906 E.02222
G1 E-3.5 F3600
;WIPE_START
G1 F7200
G1 X17.41 Y18.947 E-.30605
G1 X16.67 Y19.158 E-.36551
G1 X15.992 Y19.523 E-.36575
G1 X15.408 Y20.026 E-.36611
G1 X15.286 Y20.189 E-.09658
;WIPE_END
G1 X24.305 Y29.248 F9000
G1 E5 F2400
G1 F1200
G1 X24.305 Y15.837 E.46254
G1 X23.886 Y15.837 E.01445
G1 X23.886 Y29.078 E.45668
G1 X23.467 Y29.078 E.01445
G1 X23.467 Y15.837 E.45668
G1 X23.048 Y15.837 E.01445
G1 X23.048 Y29.078 E.45668
G1 X22.629 Y29.078 E.01445
G1 X22.629 Y15.837 E.45668
G1 X22.21 Y15.837 E.01445
G1 X22.21 Y29.078 E.45668
G1 X21.791 Y29.078 E.01445
G1 X21.791 Y15.837 E.45668
G1 X21.372 Y15.837 E.01445
G1 X21.372 Y20.511 E.1612
G1 X20.953 Y19.917 E.02507
G1 X20.953 Y15.837 E.14072
G1 X20.534 Y15.837 E.01445
G1 X20.534 Y19.482 E.12572
G1 X20.115 Y19.193 E.01756
G1 X20.115 Y15.837 E.11575
G1 X19.696 Y15.837 E.01445
G1 X19.696 Y18.949 E.10733
G1 X19.277 Y18.782 E.01556
G1 X19.277 Y15.837 E.10157
G1 X18.858 Y15.837 E.01445
G1 X18.858 Y18.661 E.0974
G1 X18.439 Y18.593 E.01464
G1 X18.439 Y15.837 E.09505
G1 X18.02 Y15.837 E.01445
G1 X18.02 Y18.568 E.09419
G1 X17.601 Y18.591 E.01447
G1 X17.601 Y15.837 E.09498
G1 X17.182 Y15.837 E.01445
G1 X17.182 Y18.658 E.0973
G1 X16.763 Y18.774 E.01499
G1 X16.763 Y15.837 E.1013
G1 X16.344 Y15.837 E.01445
G1 X16.344 Y18.946 E.10723
G1 X15.926 Y19.168 E.01632
G1 X15.926 Y15.837 E.11489
G1 X15.507 Y15.837 E.01445
G1 X15.507 Y19.49 E.12599
G1 X15.088 Y19.887 E.01991
G1 X15.088 Y15.837 E.13968
G1 X14.669 Y15.837 E.01445
G1 X14.669 Y20.839 E.17252
G1 E-3.5 F3600
;WIPE_START
G1 F7200
G1 X14.669 Y17.681 E-1.5
;WIPE_END
G1 X21.372 Y29.248 F9000
G1 E5 F2400
G1 F1200
G1 X21.372 Y24.404 E.16707
G1 X20.953 Y24.999 E.0251
G1 X20.953 Y29.078 E.14068
G1 X20.534 Y29.078 E.01445
G1 X20.534 Y25.433 E.12572
G1 X20.115 Y25.723 E.01757
G1 X20.115 Y29.078 E.11571
G1 X19.696 Y29.078 E.01445
G1 X19.696 Y25.966 E.10733
G1 X19.277 Y26.133 E.01556
G1 X19.277 Y29.078 E.10157
G1 X18.858 Y29.078 E.01445
G1 X18.858 Y26.254 E.0974
G1 X18.439 Y26.323 E.01465
G1 X18.439 Y29.078 E.09502
G1 X18.02 Y29.078 E.01445
G1 X18.02 Y26.347 E.09419
G1 X17.601 Y26.324 E.01447
G1 X17.601 Y29.078 E.09498
G1 X17.182 Y29.078 E.01445
G1 X17.182 Y26.258 E.09726
G1 X16.763 Y26.141 E.015
G1 X16.763 Y29.078 E.1013
G1 X16.344 Y29.078 E.01445
G1 X16.344 Y25.969 E.10723
G1 X15.926 Y25.747 E.01632
G1 X15.926 Y29.078 E.11489
G1 X15.507 Y29.078 E.01445
G1 X15.507 Y25.425 E.12599
G1 X15.088 Y25.028 E.01991
G1 X15.088 Y29.078 E.13968
G1 X14.669 Y29.078 E.01445
